( pcb2gcode 2.0.0 )
( Software-independent Gcode )

G94 ( Inches per minute feed rate. )
G20 ( Units == INCHES. )

G90 ( Absolute coordinates. )
G00 S1000 ( RPM spindle speed. )
G64 P0.00040 ( set maximum deviation from commanded toolpath )
G01 F7.87402 ( Feedrate. )


G00 Z0.39370 (Retract to tool change height)
T0
M5      (Spindle stop.)
G04 P1.00000 (Wait for spindle to stop)
(MSG, Change tool bit to mill diameter 0.00787in)
M6      (Tool change.)
M0      (Temporary machine stop.)
M3 ( Spindle on clockwise. )
G04 P1.00000 (Wait for spindle to get up to speed)
G04 P0 ( dwell for no time -- G64 should not smooth over this point )
G00 Z0.07874 ( retract )

G00 X0.33305 Y-0.17820 ( rapid move to begin. )
G01 F3.93701
G01 Z-0.00197
G04 P0 ( dwell for no time -- G64 should not smooth over this point )
G01 F7.87402
G01 X0.33305 Y-0.17820
G01 X0.33377 Y-0.17748
G01 X0.34480 Y-0.17748
G01 X0.34480 Y-0.19040
G01 X0.34436 Y-0.19084
G01 X0.34121 Y-0.18959
G01 X0.33634 Y-0.18559
G01 X0.33458 Y-0.18296
G01 X0.33305 Y-0.17820
G04 P0 ( dwell for no time -- G64 should not smooth over this point )
G00 Z0.07874 ( retract )

G00 X0.42018 Y-0.16335 ( rapid move to begin. )
G01 F3.93701
G01 Z-0.00197
G04 P0 ( dwell for no time -- G64 should not smooth over this point )
G01 F7.87402
G01 X0.42018 Y-0.16335
G01 X0.41930 Y-0.16631
G01 X0.41827 Y-0.16697
G01 X0.41827 Y-0.17839
G01 X0.41912 Y-0.17925
G01 X0.42434 Y-0.17758
G01 X0.42932 Y-0.17373
G01 X0.43248 Y-0.17244
G01 X0.49011 Y-0.17227
G01 X0.49274 Y-0.17154
G01 X0.49384 Y-0.17042
G01 X0.49449 Y-0.16827
G01 X0.49400 Y-0.16335
G01 X0.49449 Y-0.09051
G01 X0.49400 Y-0.08854
G01 X0.49470 Y-0.09136
G01 X0.49667 Y-0.09240
G01 X0.52224 Y-0.09248
G01 X0.52443 Y-0.09182
G01 X0.52552 Y-0.09073
G01 X0.52618 Y-0.08854
G01 X0.52613 Y-0.07066
G01 X0.52443 Y-0.06755
G01 X0.52203 Y-0.06689
G01 X0.52444 Y-0.06754
G01 X0.52612 Y-0.07005
G01 X0.52624 Y-0.07968
G01 X0.52692 Y-0.08310
G01 X0.52886 Y-0.08600
G01 X0.53108 Y-0.08758
G01 X0.53557 Y-0.08860
G01 X0.54046 Y-0.08688
G01 X0.54814 Y-0.08030
G01 X0.55004 Y-0.07743
G01 X0.55073 Y-0.07401
G01 X0.55079 Y-0.05240
G01 X0.55079 Y-0.07575
G01 X0.55145 Y-0.07794
G01 X0.55396 Y-0.07961
G01 X0.57441 Y-0.07969
G01 X0.57719 Y-0.07853
G01 X0.57835 Y-0.07575
G01 X0.57835 Y-0.05980
G01 X0.57809 Y-0.05151
G01 X0.57693 Y-0.04924
G01 X0.57420 Y-0.04819
G01 X0.55500 Y-0.04819
G01 X0.55193 Y-0.04933
G01 X0.55079 Y-0.05212
G01 X0.55194 Y-0.04934
G01 X0.55516 Y-0.04813
G01 X0.57397 Y-0.04813
G01 X0.57661 Y-0.04884
G01 X0.57806 Y-0.05061
G01 X0.57886 Y-0.07669
G01 X0.58099 Y-0.08030
G01 X0.58689 Y-0.08519
G01 X0.58864 Y-0.08782
G01 X0.59017 Y-0.09259
G01 X0.58946 Y-0.09331
G01 X0.57771 Y-0.09331
G01 X0.57660 Y-0.09216
G01 X0.57441 Y-0.09150
G01 X0.55472 Y-0.09150
G01 X0.55194 Y-0.09265
G01 X0.55086 Y-0.09466
G01 X0.55079 Y-0.09830
G01 X0.54984 Y-0.10224
G01 X0.54984 Y-0.11224
G01 X0.55071 Y-0.11605
G01 X0.55071 Y-0.13410
G01 X0.55004 Y-0.13450
G01 X0.54448 Y-0.13153
G01 X0.53794 Y-0.12452
G01 X0.53344 Y-0.12332
G01 X0.52987 Y-0.12408
G01 X0.52763 Y-0.12550
G01 X0.52441 Y-0.12922
G01 X0.52618 Y-0.12594
G01 X0.52618 Y-0.10823
G01 X0.52552 Y-0.10604
G01 X0.52443 Y-0.10495
G01 X0.52224 Y-0.10429
G01 X0.49744 Y-0.10429
G01 X0.49525 Y-0.10495
G01 X0.49437 Y-0.10724
G01 X0.49424 Y-0.12693
G01 X0.49470 Y-0.12876
G01 X0.49667 Y-0.12981
G01 X0.52224 Y-0.12988
G01 X0.52441 Y-0.12922
G01 X0.52205 Y-0.13301
G01 X0.52199 Y-0.13838
G01 X0.52356 Y-0.14136
G01 X0.52553 Y-0.14343
G01 X0.52618 Y-0.14584
G01 X0.52594 Y-0.16457
G01 X0.52486 Y-0.16610
G01 X0.52313 Y-0.16701
G01 X0.51108 Y-0.16725
G01 X0.52376 Y-0.16700
G01 X0.52553 Y-0.16554
G01 X0.52618 Y-0.16335
G01 X0.52624 Y-0.14607
G01 X0.52552 Y-0.14344
G01 X0.52443 Y-0.14236
G01 X0.52224 Y-0.14169
G01 X0.49744 Y-0.14169
G01 X0.49525 Y-0.14236
G01 X0.49412 Y-0.14531
G01 X0.49400 Y-0.16335
G01 X0.49499 Y-0.16640
G01 X0.49667 Y-0.16721
G01 X0.51108 Y-0.16725
G01 X0.49905 Y-0.16749
G01 X0.49582 Y-0.16876
G01 X0.49239 Y-0.17165
G01 X0.49046 Y-0.17220
G01 X0.42362 Y-0.17220
G01 X0.42084 Y-0.17105
G01 X0.41968 Y-0.16827
G01 X0.42018 Y-0.14563
G01 X0.41947 Y-0.14281
G01 X0.41750 Y-0.14177
G01 X0.41482 Y-0.14169
G01 X0.41107 Y-0.13994
G01 X0.39759 Y-0.13994
G01 X0.39384 Y-0.14169
G01 X0.39042 Y-0.14199
G01 X0.38865 Y-0.14344
G01 X0.38807 Y-0.14486
G01 X0.38799 Y-0.16335
G01 X0.38865 Y-0.16553
G01 X0.39039 Y-0.16697
G01 X0.39039 Y-0.17839
G01 X0.38930 Y-0.17948
G01 X0.38492 Y-0.18091
G01 X0.37874 Y-0.18783
G01 X0.37296 Y-0.19084
G01 X0.37252 Y-0.19040
G01 X0.37252 Y-0.17235
G01 X0.37339 Y-0.16854
G01 X0.37339 Y-0.15854
G01 X0.37244 Y-0.15460
G01 X0.37237 Y-0.15096
G01 X0.37129 Y-0.14895
G01 X0.36850 Y-0.14780
G01 X0.34882 Y-0.14780
G01 X0.34663 Y-0.14846
G01 X0.34551 Y-0.14961
G01 X0.33377 Y-0.14961
G01 X0.33305 Y-0.14889
G01 X0.33458 Y-0.14412
G01 X0.33634 Y-0.14149
G01 X0.34223 Y-0.13659
G01 X0.34414 Y-0.13373
G01 X0.34482 Y-0.13031
G01 X0.34488 Y-0.10851
G01 X0.34488 Y-0.13205
G01 X0.34603 Y-0.13483
G01 X0.34805 Y-0.13591
G01 X0.36850 Y-0.13598
G01 X0.37129 Y-0.13483
G01 X0.37244 Y-0.13205
G01 X0.37244 Y-0.10842
G01 X0.37129 Y-0.10564
G01 X0.36863 Y-0.10454
G01 X0.34902 Y-0.10449
G01 X0.34629 Y-0.10553
G01 X0.34488 Y-0.10851
G01 X0.34603 Y-0.10564
G01 X0.34926 Y-0.10443
G01 X0.36928 Y-0.10454
G01 X0.37130 Y-0.10563
G01 X0.37514 Y-0.11027
G01 X0.37757 Y-0.11148
G01 X0.38085 Y-0.11184
G01 X0.38568 Y-0.10996
G01 X0.39077 Y-0.10375
G01 X0.39237 Y-0.10002
G01 X0.39233 Y-0.09655
G01 X0.38802 Y-0.08860
G01 X0.38915 Y-0.09133
G01 X0.39116 Y-0.09240
G01 X0.41673 Y-0.09248
G01 X0.41892 Y-0.09182
G01 X0.42018 Y-0.08854
G01 X0.42018 Y-0.07083
G01 X0.41980 Y-0.12693
G01 X0.42018 Y-0.10823
G01 X0.41947 Y-0.10541
G01 X0.41673 Y-0.10429
G01 X0.39193 Y-0.10429
G01 X0.38979 Y-0.10494
G01 X0.38799 Y-0.10823
G01 X0.38799 Y-0.12594
G01 X0.38865 Y-0.12813
G01 X0.39116 Y-0.12981
G01 X0.41673 Y-0.12988
G01 X0.41892 Y-0.12922
G01 X0.41980 Y-0.12693
G01 X0.41968 Y-0.14366
G01 X0.42018 Y-0.14563
G04 P0 ( dwell for no time -- G64 should not smooth over this point )
G00 Z0.07874 ( retract )

G00 X0.49400 Y-0.08854 ( rapid move to begin. )
G01 F3.93701
G01 Z-0.00197
G04 P0 ( dwell for no time -- G64 should not smooth over this point )
G01 F7.87402
G01 X0.49400 Y-0.08854
G01 X0.49449 Y-0.06591
G01 X0.49389 Y-0.06393
G01 X0.49073 Y-0.06202
G01 X0.42383 Y-0.06197
G01 X0.42142 Y-0.06262
G01 X0.41836 Y-0.06541
G01 X0.41512 Y-0.06669
G01 X0.39104 Y-0.06716
G01 X0.38931 Y-0.06808
G01 X0.38804 Y-0.07056
G01 X0.38793 Y-0.08811
G01 X0.38802 Y-0.08860
G01 X0.38805 Y-0.07006
G01 X0.38974 Y-0.06755
G01 X0.39193 Y-0.06689
G01 X0.41673 Y-0.06689
G01 X0.41918 Y-0.06777
G01 X0.42018 Y-0.07083
G01 X0.41968 Y-0.06591
G01 X0.42033 Y-0.06374
G01 X0.42143 Y-0.06263
G01 X0.42406 Y-0.06191
G01 X0.49055 Y-0.06197
G01 X0.49274 Y-0.06263
G01 X0.49626 Y-0.06568
G01 X0.49905 Y-0.06669
G01 X0.52203 Y-0.06689
G01 X0.49744 Y-0.06689
G01 X0.49525 Y-0.06755
G01 X0.49400 Y-0.07083
G04 P0 ( dwell for no time -- G64 should not smooth over this point )
G00 Z0.07874 ( retract )

G00 X0.57842 Y-0.13410 ( rapid move to begin. )
G01 F3.93701
G01 Z-0.00197
G04 P0 ( dwell for no time -- G64 should not smooth over this point )
G01 F7.87402
G01 X0.57842 Y-0.13410
G01 X0.57842 Y-0.12118
G01 X0.58946 Y-0.12118
G01 X0.59017 Y-0.12190
G01 X0.58984 Y-0.12378
G01 X0.58689 Y-0.12929
G01 X0.58202 Y-0.13329
G01 X0.57910 Y-0.13450
G01 X0.57842 Y-0.13410
G04 P0 ( dwell for no time -- G64 should not smooth over this point )
G00 Z0.07874 ( retract )

G00 X0.61671 Y-0.12300 ( rapid move to begin. )
G01 F3.93701
G01 Z-0.00197
G04 P0 ( dwell for no time -- G64 should not smooth over this point )
G01 F7.87402
G01 X0.61671 Y-0.12300
G01 X0.61671 Y-0.09897
G01 X0.61854 Y-0.09294
G01 X0.62253 Y-0.08807
G01 X0.62517 Y-0.08632
G01 X0.63119 Y-0.08449
G01 X0.66458 Y-0.08449
G01 X0.66559 Y-0.08550
G01 X0.66559 Y-0.09661
G01 X0.63277 Y-0.09661
G01 X0.63059 Y-0.09728
G01 X0.62950 Y-0.09836
G01 X0.62884 Y-0.10055
G01 X0.62884 Y-0.12402
G01 X0.61773 Y-0.12402
G01 X0.61671 Y-0.12300
G04 P0 ( dwell for no time -- G64 should not smooth over this point )
G00 Z0.07874 ( retract )

G00 X0.61671 Y-0.17694 ( rapid move to begin. )
G01 F3.93701
G01 Z-0.00197
G04 P0 ( dwell for no time -- G64 should not smooth over this point )
G01 F7.87402
G01 X0.61671 Y-0.17694
G01 X0.61671 Y-0.15290
G01 X0.61773 Y-0.15189
G01 X0.62884 Y-0.15189
G01 X0.62891 Y-0.17612
G01 X0.62999 Y-0.17814
G01 X0.63201 Y-0.17922
G01 X0.72705 Y-0.17922
G01 X0.72906 Y-0.17814
G01 X0.73014 Y-0.17612
G01 X0.73022 Y-0.15189
G01 X0.73396 Y-0.15189
G01 X0.73396 Y-0.17535
G01 X0.73462 Y-0.17754
G01 X0.73571 Y-0.17863
G01 X0.73789 Y-0.17929
G01 X0.78492 Y-0.17922
G01 X0.78694 Y-0.17814
G01 X0.78801 Y-0.17612
G01 X0.78809 Y-0.15189
G01 X0.80010 Y-0.15189
G01 X0.80040 Y-0.17686
G01 X0.80125 Y-0.17814
G01 X0.80327 Y-0.17922
G01 X0.81323 Y-0.17929
G01 X0.81323 Y-0.19040
G01 X0.81221 Y-0.19142
G01 X0.80245 Y-0.19142
G01 X0.79409 Y-0.18936
G01 X0.78573 Y-0.19142
G01 X0.77595 Y-0.19142
G01 X0.77066 Y-0.18647
G01 X0.76526 Y-0.18524
G01 X0.76192 Y-0.18621
G01 X0.75849 Y-0.18930
G01 X0.75711 Y-0.19372
G01 X0.75784 Y-0.19856
G01 X0.75965 Y-0.20123
G01 X0.76428 Y-0.20530
G01 X0.76691 Y-0.20893
G01 X0.77160 Y-0.21137
G01 X0.77890 Y-0.21189
G01 X0.78063 Y-0.21332
G01 X0.78130 Y-0.21551
G01 X0.78100 Y-0.27135
G01 X0.77899 Y-0.27335
G01 X0.77473 Y-0.27372
G01 X0.78081 Y-0.27319
G01 X0.78567 Y-0.27384
G01 X0.80354 Y-0.27370
G01 X0.78524 Y-0.27378
G01 X0.78245 Y-0.27263
G01 X0.78130 Y-0.26984
G01 X0.78160 Y-0.21401
G01 X0.78305 Y-0.21224
G01 X0.78524 Y-0.21157
G01 X0.80449 Y-0.21189
G01 X0.80623 Y-0.21332
G01 X0.80689 Y-0.21551
G01 X0.80659 Y-0.27135
G01 X0.80514 Y-0.27312
G01 X0.80354 Y-0.27370
G01 X0.80738 Y-0.27319
G01 X0.81078 Y-0.27376
G01 X0.80804 Y-0.27263
G01 X0.80689 Y-0.26984
G01 X0.80719 Y-0.21401
G01 X0.80864 Y-0.21224
G01 X0.81083 Y-0.21157
G01 X0.83008 Y-0.21189
G01 X0.83182 Y-0.21332
G01 X0.83248 Y-0.21551
G01 X0.83218 Y-0.27135
G01 X0.83073 Y-0.27312
G01 X0.82913 Y-0.27370
G01 X0.81078 Y-0.27376
G01 X0.82810 Y-0.27384
G01 X0.83554 Y-0.27342
G01 X0.83363 Y-0.27263
G01 X0.83248 Y-0.26984
G01 X0.83278 Y-0.21401
G01 X0.83423 Y-0.21224
G01 X0.83642 Y-0.21157
G01 X0.85564 Y-0.21187
G01 X0.85741 Y-0.21332
G01 X0.85807 Y-0.21551
G01 X0.85777 Y-0.27135
G01 X0.85632 Y-0.27312
G01 X0.85490 Y-0.27370
G01 X0.83554 Y-0.27342
G01 X0.84237 Y-0.27402
G01 X0.84487 Y-0.27498
G01 X0.84701 Y-0.27657
G01 X0.85177 Y-0.28232
G01 X0.85732 Y-0.28529
G01 X0.86043 Y-0.28591
G01 X0.87609 Y-0.28591
G01 X0.87711 Y-0.28489
G01 X0.87711 Y-0.27378
G01 X0.86124 Y-0.27370
G01 X0.85922 Y-0.27263
G01 X0.85815 Y-0.27061
G01 X0.85807 Y-0.18716
G01 X0.85873 Y-0.18498
G01 X0.85982 Y-0.18389
G01 X0.86201 Y-0.18323
G01 X0.92158 Y-0.18353
G01 X0.92335 Y-0.18498
G01 X0.92402 Y-0.18716
G01 X0.92402 Y-0.21457
G01 X0.93513 Y-0.21457
G01 X0.93614 Y-0.21355
G01 X0.93622 Y-0.19959
G01 X0.93682 Y-0.19693
G01 X0.93876 Y-0.19403
G01 X0.94351 Y-0.19156
G01 X0.95698 Y-0.19142
G01 X0.96010 Y-0.19080
G01 X0.96565 Y-0.18783
G01 X0.96965 Y-0.18296
G01 X0.97148 Y-0.17694
G01 X0.97148 Y-0.15290
G01 X0.97046 Y-0.15189
G01 X0.95935 Y-0.15189
G01 X0.95927 Y-0.17612
G01 X0.95820 Y-0.17814
G01 X0.95618 Y-0.17922
G01 X0.86191 Y-0.17929
G01 X0.85913 Y-0.17814
G01 X0.85805 Y-0.17612
G01 X0.85797 Y-0.15189
G01 X0.85423 Y-0.15189
G01 X0.85393 Y-0.17686
G01 X0.85308 Y-0.17814
G01 X0.85106 Y-0.17922
G01 X0.84110 Y-0.17929
G01 X0.84110 Y-0.19040
G01 X0.84382 Y-0.19322
G01 X0.84549 Y-0.19626
G01 X0.84594 Y-0.19903
G01 X0.84539 Y-0.20563
G01 X0.84333 Y-0.20889
G01 X0.84060 Y-0.21075
G01 X0.83345 Y-0.21214
G01 X0.82810 Y-0.21151
G01 X0.81127 Y-0.21151
G01 X0.80640 Y-0.21216
G01 X0.80251 Y-0.21151
G01 X0.78568 Y-0.21151
G01 X0.78081 Y-0.21216
G01 X0.75965 Y-0.21157
G01 X0.75746 Y-0.21224
G01 X0.75601 Y-0.21401
G01 X0.75571 Y-0.26984
G01 X0.75686 Y-0.27263
G01 X0.75965 Y-0.27378
G01 X0.77473 Y-0.27372
G01 X0.76977 Y-0.27452
G01 X0.76747 Y-0.27597
G01 X0.76201 Y-0.28232
G01 X0.75661 Y-0.28522
G01 X0.75610 Y-0.28138
G01 X0.75428 Y-0.27761
G01 X0.75163 Y-0.27538
G01 X0.74715 Y-0.27424
G01 X0.74324 Y-0.27528
G01 X0.74106 Y-0.27681
G01 X0.73642 Y-0.28232
G01 X0.73005 Y-0.28561
G01 X0.71210 Y-0.28591
G01 X0.71108 Y-0.28489
G01 X0.71108 Y-0.27378
G01 X0.72695 Y-0.27370
G01 X0.72896 Y-0.27263
G01 X0.73004 Y-0.27061
G01 X0.73012 Y-0.18716
G01 X0.72896 Y-0.18438
G01 X0.72618 Y-0.18323
G01 X0.66660 Y-0.18353
G01 X0.66484 Y-0.18498
G01 X0.66417 Y-0.18716
G01 X0.66417 Y-0.21457
G01 X0.65306 Y-0.21457
G01 X0.65205 Y-0.21355
G01 X0.65197 Y-0.19959
G01 X0.65137 Y-0.19693
G01 X0.64943 Y-0.19403
G01 X0.64468 Y-0.19156
G01 X0.63121 Y-0.19142
G01 X0.62517 Y-0.18959
G01 X0.62030 Y-0.18559
G01 X0.61733 Y-0.18004
G01 X0.61671 Y-0.17694
G04 P0 ( dwell for no time -- G64 should not smooth over this point )
G00 Z0.07874 ( retract )

G00 X0.69346 Y-0.09661 ( rapid move to begin. )
G01 F3.93701
G01 Z-0.00197
G04 P0 ( dwell for no time -- G64 should not smooth over this point )
G01 F7.87402
G01 X0.69346 Y-0.09661
G01 X0.69346 Y-0.08550
G01 X0.69448 Y-0.08449
G01 X0.72791 Y-0.08449
G01 X0.73209 Y-0.08515
G01 X0.73626 Y-0.08449
G01 X0.74607 Y-0.08449
G01 X0.74709 Y-0.08550
G01 X0.74709 Y-0.09661
G01 X0.73713 Y-0.09669
G01 X0.73511 Y-0.09777
G01 X0.73426 Y-0.09904
G01 X0.73396 Y-0.12402
G01 X0.73022 Y-0.12402
G01 X0.73022 Y-0.10055
G01 X0.72955 Y-0.09836
G01 X0.72847 Y-0.09728
G01 X0.72628 Y-0.09661
G01 X0.69346 Y-0.09661
G04 P0 ( dwell for no time -- G64 should not smooth over this point )
G00 Z0.07874 ( retract )

G00 X0.77496 Y-0.09661 ( rapid move to begin. )
G01 F3.93701
G01 Z-0.00197
G04 P0 ( dwell for no time -- G64 should not smooth over this point )
G01 F7.87402
G01 X0.77496 Y-0.09661
G01 X0.77496 Y-0.08550
G01 X0.77597 Y-0.08449
G01 X0.78573 Y-0.08449
G01 X0.79409 Y-0.08655
G01 X0.80245 Y-0.08449
G01 X0.81221 Y-0.08449
G01 X0.81323 Y-0.08550
G01 X0.81323 Y-0.09661
G01 X0.80327 Y-0.09669
G01 X0.80125 Y-0.09777
G01 X0.80040 Y-0.09904
G01 X0.80010 Y-0.12402
G01 X0.78809 Y-0.12402
G01 X0.78779 Y-0.09904
G01 X0.78694 Y-0.09777
G01 X0.78492 Y-0.09669
G01 X0.77496 Y-0.09661
G04 P0 ( dwell for no time -- G64 should not smooth over this point )
G00 Z0.07874 ( retract )

G00 X0.84110 Y-0.09661 ( rapid move to begin. )
G01 F3.93701
G01 Z-0.00197
G04 P0 ( dwell for no time -- G64 should not smooth over this point )
G01 F7.87402
G01 X0.84110 Y-0.09661
G01 X0.84110 Y-0.08550
G01 X0.84212 Y-0.08449
G01 X0.85193 Y-0.08449
G01 X0.85610 Y-0.08515
G01 X0.86028 Y-0.08449
G01 X0.89371 Y-0.08449
G01 X0.89472 Y-0.08550
G01 X0.89472 Y-0.09661
G01 X0.86191 Y-0.09661
G01 X0.85913 Y-0.09777
G01 X0.85797 Y-0.10055
G01 X0.85797 Y-0.12402
G01 X0.85423 Y-0.12402
G01 X0.85423 Y-0.10055
G01 X0.85357 Y-0.09836
G01 X0.85106 Y-0.09669
G01 X0.84110 Y-0.09661
G04 P0 ( dwell for no time -- G64 should not smooth over this point )
G00 Z0.07874 ( retract )

G00 X0.92260 Y-0.09661 ( rapid move to begin. )
G01 F3.93701
G01 Z-0.00197
G04 P0 ( dwell for no time -- G64 should not smooth over this point )
G01 F7.87402
G01 X0.92260 Y-0.09661
G01 X0.92260 Y-0.08550
G01 X0.92361 Y-0.08449
G01 X0.95700 Y-0.08449
G01 X0.96302 Y-0.08632
G01 X0.96789 Y-0.09031
G01 X0.97086 Y-0.09587
G01 X0.97148 Y-0.09897
G01 X0.97148 Y-0.12300
G01 X0.97046 Y-0.12402
G01 X0.95935 Y-0.12402
G01 X0.95935 Y-0.10055
G01 X0.95869 Y-0.09836
G01 X0.95760 Y-0.09728
G01 X0.95541 Y-0.09661
G01 X0.92260 Y-0.09661
G04 P0 ( dwell for no time -- G64 should not smooth over this point )
G00 Z0.07874 ( retract )

G00 X0.99961 Y-0.22335 ( rapid move to begin. )
G01 F3.93701
G01 Z-0.00197
G04 P0 ( dwell for no time -- G64 should not smooth over this point )
G01 F7.87402
G01 X0.99961 Y-0.22335
G01 X0.99961 Y-0.21224
G01 X1.00062 Y-0.21122
G01 X1.00512 Y-0.21184
G01 X1.01067 Y-0.21481
G01 X1.01291 Y-0.21705
G01 X1.01588 Y-0.22260
G01 X1.01650 Y-0.22808
G01 X1.01548 Y-0.22910
G01 X1.00437 Y-0.22910
G01 X1.00429 Y-0.22652
G01 X1.00322 Y-0.22450
G01 X1.00194 Y-0.22365
G01 X0.99961 Y-0.22335
G04 P0 ( dwell for no time -- G64 should not smooth over this point )
G00 Z0.07874 ( retract )

G00 X0.95484 Y-0.22808 ( rapid move to begin. )
G01 F3.93701
G01 Z-0.00197
G04 P0 ( dwell for no time -- G64 should not smooth over this point )
G01 F7.87402
G01 X0.95484 Y-0.22808
G01 X0.95586 Y-0.22910
G01 X0.96697 Y-0.22910
G01 X0.96704 Y-0.22652
G01 X0.96812 Y-0.22450
G01 X0.96940 Y-0.22365
G01 X0.97173 Y-0.22335
G01 X0.97173 Y-0.21224
G01 X0.97072 Y-0.21122
G01 X0.96622 Y-0.21184
G01 X0.96066 Y-0.21481
G01 X0.95667 Y-0.21968
G01 X0.95546 Y-0.22260
G01 X0.95484 Y-0.22808
G04 P0 ( dwell for no time -- G64 should not smooth over this point )
G00 Z0.07874 ( retract )

G00 X0.95484 Y-0.26037 ( rapid move to begin. )
G01 F3.93701
G01 Z-0.00197
G04 P0 ( dwell for no time -- G64 should not smooth over this point )
G01 F7.87402
G01 X0.95484 Y-0.26037
G01 X0.95667 Y-0.26639
G01 X0.95843 Y-0.26902
G01 X0.96591 Y-0.27513
G01 X0.96795 Y-0.27938
G01 X0.96803 Y-0.28205
G01 X0.96697 Y-0.28634
G01 X0.96713 Y-0.31822
G01 X0.96691 Y-0.28678
G01 X0.96812 Y-0.28356
G01 X0.97091 Y-0.28241
G01 X1.00043 Y-0.28241
G01 X1.00322 Y-0.28356
G01 X1.00443 Y-0.28678
G01 X1.00443 Y-0.31740
G01 X1.00409 Y-0.31935
G01 X1.00263 Y-0.32113
G01 X0.99999 Y-0.32184
G01 X0.97134 Y-0.32184
G01 X0.96812 Y-0.32062
G01 X0.96713 Y-0.31822
G01 X0.96801 Y-0.32036
G01 X0.97099 Y-0.32177
G01 X1.00022 Y-0.32177
G01 X1.00339 Y-0.32020
G01 X1.00437 Y-0.31775
G01 X1.00437 Y-0.28652
G01 X1.00330 Y-0.28205
G01 X1.00338 Y-0.27938
G01 X1.00543 Y-0.27513
G01 X1.01068 Y-0.27125
G01 X1.01467 Y-0.26639
G01 X1.01588 Y-0.26347
G01 X1.01650 Y-0.25799
G01 X1.01548 Y-0.25697
G01 X1.00437 Y-0.25697
G01 X1.00371 Y-0.26097
G01 X1.00262 Y-0.26206
G01 X1.00043 Y-0.26272
G01 X0.97014 Y-0.26264
G01 X0.96763 Y-0.26097
G01 X0.96697 Y-0.25697
G01 X0.95586 Y-0.25697
G01 X0.95484 Y-0.25799
G01 X0.95484 Y-0.26037
G04 P0 ( dwell for no time -- G64 should not smooth over this point )
G00 Z0.07874 ( retract )

G00 X0.90498 Y-0.28489 ( rapid move to begin. )
G01 F3.93701
G01 Z-0.00197
G04 P0 ( dwell for no time -- G64 should not smooth over this point )
G01 F7.87402
G01 X0.90498 Y-0.28489
G01 X0.90498 Y-0.27378
G01 X0.92085 Y-0.27370
G01 X0.92227 Y-0.27312
G01 X0.92372 Y-0.27135
G01 X0.92402 Y-0.24244
G01 X0.93513 Y-0.24244
G01 X0.93614 Y-0.24346
G01 X0.93614 Y-0.27142
G01 X0.93431 Y-0.27745
G01 X0.93256 Y-0.28008
G01 X0.92769 Y-0.28408
G01 X0.92166 Y-0.28591
G01 X0.90599 Y-0.28591
G01 X0.90498 Y-0.28489
G04 P0 ( dwell for no time -- G64 should not smooth over this point )
G00 Z0.07874 ( retract )

G00 X0.91671 Y-0.34889 ( rapid move to begin. )
G01 F3.93701
G01 Z-0.00197
G04 P0 ( dwell for no time -- G64 should not smooth over this point )
G01 F7.87402
G01 X0.91671 Y-0.34889
G01 X0.91671 Y-0.31434
G01 X0.91742 Y-0.31170
G01 X0.91919 Y-0.31025
G01 X0.92114 Y-0.30990
G01 X0.93996 Y-0.30990
G01 X0.94258 Y-0.31063
G01 X0.94403 Y-0.31239
G01 X0.94433 Y-0.31399
G01 X0.94433 Y-0.34912
G01 X0.94367 Y-0.35152
G01 X0.94031 Y-0.35327
G01 X0.92098 Y-0.35327
G01 X0.91791 Y-0.35213
G01 X0.91677 Y-0.34933
G01 X0.91792 Y-0.35212
G01 X0.92114 Y-0.35333
G01 X0.93996 Y-0.35333
G01 X0.94191 Y-0.35299
G01 X0.94368 Y-0.35153
G01 X0.94439 Y-0.34889
G01 X0.94439 Y-0.31434
G01 X0.94405 Y-0.31239
G01 X0.94259 Y-0.31061
G01 X0.94019 Y-0.30996
G01 X0.92079 Y-0.30996
G01 X0.91744 Y-0.31171
G01 X0.91677 Y-0.31411
G01 X0.91671 Y-0.34889
G04 P0 ( dwell for no time -- G64 should not smooth over this point )
G00 Z0.07874 ( retract )

G00 X0.85765 Y-0.34890 ( rapid move to begin. )
G01 F3.93701
G01 Z-0.00197
G04 P0 ( dwell for no time -- G64 should not smooth over this point )
G01 F7.87402
G01 X0.85765 Y-0.34890
G01 X0.85765 Y-0.31434
G01 X0.85836 Y-0.31170
G01 X0.86014 Y-0.31025
G01 X0.86209 Y-0.30990
G01 X0.88090 Y-0.30990
G01 X0.88353 Y-0.31063
G01 X0.88499 Y-0.31239
G01 X0.88528 Y-0.31399
G01 X0.88528 Y-0.34912
G01 X0.88461 Y-0.35152
G01 X0.88125 Y-0.35327
G01 X0.86192 Y-0.35327
G01 X0.85886 Y-0.35213
G01 X0.85772 Y-0.34933
G01 X0.85887 Y-0.35212
G01 X0.86209 Y-0.35333
G01 X0.88090 Y-0.35333
G01 X0.88285 Y-0.35299
G01 X0.88463 Y-0.35153
G01 X0.88534 Y-0.34889
G01 X0.88534 Y-0.31434
G01 X0.88471 Y-0.31205
G01 X0.88354 Y-0.31061
G01 X0.88113 Y-0.30996
G01 X0.86174 Y-0.30996
G01 X0.86015 Y-0.31026
G01 X0.85838 Y-0.31171
G01 X0.85772 Y-0.31411
G01 X0.85765 Y-0.34890
G04 P0 ( dwell for no time -- G64 should not smooth over this point )
G00 Z0.07874 ( retract )

G00 X0.73012 Y-0.26984 ( rapid move to begin. )
G01 F3.93701
G01 Z-0.00197
G04 P0 ( dwell for no time -- G64 should not smooth over this point )
G01 F7.87402
G01 X0.73012 Y-0.26984
G01 X0.73012 Y-0.21551
G01 X0.73056 Y-0.21374
G01 X0.73187 Y-0.21224
G01 X0.73406 Y-0.21157
G01 X0.75328 Y-0.21187
G01 X0.75504 Y-0.21332
G01 X0.75571 Y-0.21551
G01 X0.75541 Y-0.27135
G01 X0.75396 Y-0.27312
G01 X0.75254 Y-0.27370
G01 X0.73406 Y-0.27378
G01 X0.73127 Y-0.27263
G01 X0.73012 Y-0.26984
G04 P0 ( dwell for no time -- G64 should not smooth over this point )
G00 Z0.07874 ( retract )

G00 X0.65205 Y-0.27142 ( rapid move to begin. )
G01 F3.93701
G01 Z-0.00197
G04 P0 ( dwell for no time -- G64 should not smooth over this point )
G01 F7.87402
G01 X0.65205 Y-0.27142
G01 X0.65205 Y-0.24346
G01 X0.65306 Y-0.24244
G01 X0.66417 Y-0.24244
G01 X0.66447 Y-0.27135
G01 X0.66592 Y-0.27312
G01 X0.66734 Y-0.27370
G01 X0.68321 Y-0.27378
G01 X0.68321 Y-0.28489
G01 X0.68219 Y-0.28591
G01 X0.66653 Y-0.28591
G01 X0.66050 Y-0.28408
G01 X0.65787 Y-0.28232
G01 X0.65387 Y-0.27745
G01 X0.65205 Y-0.27142
G04 P0 ( dwell for no time -- G64 should not smooth over this point )
G00 Z0.07874 ( retract )

G00 X0.57801 Y-0.35338 ( rapid move to begin. )
G01 F3.93701
G01 Z-0.00197
G04 P0 ( dwell for no time -- G64 should not smooth over this point )
G01 F7.87402
G01 X0.57801 Y-0.35338
G01 X0.57801 Y-0.32277
G01 X0.57921 Y-0.31953
G01 X0.58245 Y-0.31833
G01 X0.61306 Y-0.31833
G01 X0.61629 Y-0.31954
G01 X0.61744 Y-0.32259
G01 X0.61744 Y-0.35356
G01 X0.61629 Y-0.35661
G01 X0.61323 Y-0.35776
G01 X0.58228 Y-0.35776
G01 X0.57921 Y-0.35662
G01 X0.57807 Y-0.35382
G01 X0.57922 Y-0.35661
G01 X0.58245 Y-0.35782
G01 X0.61306 Y-0.35782
G01 X0.61630 Y-0.35662
G01 X0.61750 Y-0.35339
G01 X0.61750 Y-0.32276
G01 X0.61630 Y-0.31953
G01 X0.61323 Y-0.31839
G01 X0.58228 Y-0.31839
G01 X0.57922 Y-0.31954
G01 X0.57807 Y-0.32260
G01 X0.57801 Y-0.35338
G04 P0 ( dwell for no time -- G64 should not smooth over this point )
G00 Z0.07874 ( retract )

G00 X0.65801 Y-0.35339 ( rapid move to begin. )
G01 F3.93701
G01 Z-0.00197
G04 P0 ( dwell for no time -- G64 should not smooth over this point )
G01 F7.87402
G01 X0.65801 Y-0.35339
G01 X0.65801 Y-0.32276
G01 X0.65921 Y-0.31953
G01 X0.66245 Y-0.31833
G01 X0.69306 Y-0.31833
G01 X0.69629 Y-0.31954
G01 X0.69744 Y-0.32260
G01 X0.69744 Y-0.35355
G01 X0.69629 Y-0.35661
G01 X0.69323 Y-0.35776
G01 X0.66228 Y-0.35776
G01 X0.65921 Y-0.35662
G01 X0.65807 Y-0.35382
G01 X0.65922 Y-0.35661
G01 X0.66245 Y-0.35782
G01 X0.69306 Y-0.35782
G01 X0.69630 Y-0.35662
G01 X0.69750 Y-0.35338
G01 X0.69750 Y-0.32277
G01 X0.69630 Y-0.31953
G01 X0.69323 Y-0.31839
G01 X0.66228 Y-0.31839
G01 X0.65922 Y-0.31954
G01 X0.65807 Y-0.32260
G01 X0.65801 Y-0.35339
G04 P0 ( dwell for no time -- G64 should not smooth over this point )
G00 Z0.07874 ( retract )

G00 X0.71789 Y-0.36858 ( rapid move to begin. )
G01 F3.93701
G01 Z-0.00197
G04 P0 ( dwell for no time -- G64 should not smooth over this point )
G01 F7.87402
G01 X0.71789 Y-0.36858
G01 X0.71909 Y-0.37182
G01 X0.72233 Y-0.37302
G01 X0.74507 Y-0.37302
G01 X0.74694 Y-0.37268
G01 X0.74879 Y-0.37121
G01 X0.74945 Y-0.36902
G01 X0.74945 Y-0.35327
G01 X0.74879 Y-0.35108
G01 X0.74770 Y-0.35000
G01 X0.74551 Y-0.34933
G01 X0.72189 Y-0.34933
G01 X0.71979 Y-0.34997
G01 X0.71800 Y-0.35310
G01 X0.71795 Y-0.36020
G01 X0.71801 Y-0.35250
G01 X0.72156 Y-0.34747
G01 X0.72250 Y-0.34392
G01 X0.72156 Y-0.33939
G01 X0.71860 Y-0.33578
G01 X0.71795 Y-0.33359
G01 X0.71795 Y-0.32477
G01 X0.71795 Y-0.33338
G01 X0.71910 Y-0.33637
G01 X0.72112 Y-0.33745
G01 X0.74551 Y-0.33752
G01 X0.74770 Y-0.33686
G01 X0.74915 Y-0.33509
G01 X0.74945 Y-0.33359
G01 X0.74945 Y-0.31784
G01 X0.74879 Y-0.31565
G01 X0.74695 Y-0.31418
G01 X0.74544 Y-0.31390
G01 X0.72099 Y-0.31417
G01 X0.71958 Y-0.31472
G01 X0.71816 Y-0.31678
G01 X0.71795 Y-0.32477
G01 X0.71801 Y-0.31707
G01 X0.71909 Y-0.31504
G01 X0.72037 Y-0.31418
G01 X0.74507 Y-0.31384
G01 X0.74691 Y-0.31415
G01 X0.75098 Y-0.31625
G01 X0.75426 Y-0.31654
G01 X0.75881 Y-0.31489
G01 X0.75740 Y-0.31707
G01 X0.75732 Y-0.33359
G01 X0.75848 Y-0.33637
G01 X0.76049 Y-0.33745
G01 X0.78488 Y-0.33752
G01 X0.78707 Y-0.33686
G01 X0.78852 Y-0.33509
G01 X0.78882 Y-0.33359
G01 X0.78882 Y-0.31784
G01 X0.78816 Y-0.31565
G01 X0.78632 Y-0.31418
G01 X0.78482 Y-0.31390
G01 X0.76079 Y-0.31417
G01 X0.75881 Y-0.31489
G01 X0.75982 Y-0.31418
G01 X0.78444 Y-0.31384
G01 X0.78628 Y-0.31415
G01 X0.79035 Y-0.31625
G01 X0.79363 Y-0.31654
G01 X0.80107 Y-0.31384
G01 X0.82381 Y-0.31384
G01 X0.82644 Y-0.31456
G01 X0.82791 Y-0.31632
G01 X0.82812 Y-0.33390
G01 X0.82635 Y-0.33689
G01 X0.82789 Y-0.33509
G01 X0.82819 Y-0.33359
G01 X0.82819 Y-0.31784
G01 X0.82645 Y-0.31455
G01 X0.82405 Y-0.31390
G01 X0.80016 Y-0.31417
G01 X0.79772 Y-0.31521
G01 X0.79677 Y-0.31707
G01 X0.79669 Y-0.33359
G01 X0.79785 Y-0.33637
G01 X0.79986 Y-0.33745
G01 X0.82425 Y-0.33752
G01 X0.82635 Y-0.33689
G01 X0.82458 Y-0.33939
G01 X0.82364 Y-0.34294
G01 X0.82458 Y-0.34747
G01 X0.82754 Y-0.35107
G01 X0.82819 Y-0.35348
G01 X0.82813 Y-0.36928
G01 X0.82656 Y-0.37214
G01 X0.82515 Y-0.37268
G01 X0.79970 Y-0.37279
G01 X0.82576 Y-0.37267
G01 X0.82705 Y-0.37182
G01 X0.82813 Y-0.36979
G01 X0.82825 Y-0.35371
G01 X0.82752 Y-0.35108
G01 X0.82644 Y-0.35000
G01 X0.82425 Y-0.34933
G01 X0.80063 Y-0.34933
G01 X0.79844 Y-0.35000
G01 X0.79736 Y-0.35108
G01 X0.79669 Y-0.35327
G01 X0.79669 Y-0.36902
G01 X0.79771 Y-0.37164
G01 X0.79970 Y-0.37279
G01 X0.79516 Y-0.37061
G01 X0.79188 Y-0.37032
G01 X0.78536 Y-0.37269
G01 X0.76086 Y-0.37288
G01 X0.75834 Y-0.37164
G01 X0.75732 Y-0.36902
G01 X0.75732 Y-0.35327
G01 X0.75799 Y-0.35108
G01 X0.75907 Y-0.35000
G01 X0.76126 Y-0.34933
G01 X0.78488 Y-0.34933
G01 X0.78707 Y-0.35000
G01 X0.78816 Y-0.35108
G01 X0.78882 Y-0.35327
G01 X0.78882 Y-0.36902
G01 X0.78816 Y-0.37121
G01 X0.78631 Y-0.37268
G01 X0.76170 Y-0.37302
G01 X0.75986 Y-0.37271
G01 X0.75579 Y-0.37061
G01 X0.75251 Y-0.37032
G01 X0.74599 Y-0.37269
G01 X0.72194 Y-0.37288
G01 X0.71910 Y-0.37180
G01 X0.71795 Y-0.36875
G01 X0.71795 Y-0.36020
G01 X0.71789 Y-0.36858
G04 P0 ( dwell for no time -- G64 should not smooth over this point )
G00 Z0.07874 ( retract )

G00 X0.65071 Y-0.46422 ( rapid move to begin. )
G01 F3.93701
G01 Z-0.00197
G04 P0 ( dwell for no time -- G64 should not smooth over this point )
G01 F7.87402
G01 X0.65071 Y-0.46422
G01 X0.65347 Y-0.45917
G01 X0.65982 Y-0.45371
G01 X0.66126 Y-0.45141
G01 X0.66195 Y-0.44799
G01 X0.66201 Y-0.43416
G01 X0.66201 Y-0.44973
G01 X0.66316 Y-0.45251
G01 X0.66518 Y-0.45359
G01 X0.68957 Y-0.45366
G01 X0.69175 Y-0.45300
G01 X0.69320 Y-0.45123
G01 X0.69350 Y-0.44973
G01 X0.69350 Y-0.43416
G01 X0.69182 Y-0.42686
G01 X0.69339 Y-0.42251
G01 X0.69679 Y-0.41901
G01 X0.69744 Y-0.41681
G01 X0.69744 Y-0.38540
G01 X0.69603 Y-0.38243
G01 X0.69329 Y-0.38138
G01 X0.66209 Y-0.38138
G01 X0.65912 Y-0.38279
G01 X0.65807 Y-0.38552
G01 X0.65872 Y-0.38312
G01 X0.66049 Y-0.38166
G01 X0.66245 Y-0.38132
G01 X0.69307 Y-0.38132
G01 X0.69570 Y-0.38203
G01 X0.69716 Y-0.38380
G01 X0.69750 Y-0.38576
G01 X0.69750 Y-0.41638
G01 X0.69618 Y-0.41964
G01 X0.69350 Y-0.42075
G01 X0.66201 Y-0.42075
G01 X0.65927 Y-0.41962
G01 X0.65807 Y-0.41681
G01 X0.65807 Y-0.38552
G01 X0.65813 Y-0.41759
G01 X0.65872 Y-0.41901
G01 X0.66267 Y-0.42333
G01 X0.66370 Y-0.42705
G01 X0.66201 Y-0.43416
G01 X0.66231 Y-0.43247
G01 X0.66376 Y-0.43071
G01 X0.66594 Y-0.43004
G01 X0.68957 Y-0.43004
G01 X0.69175 Y-0.43071
G01 X0.69299 Y-0.43207
G01 X0.69357 Y-0.43443
G01 X0.69371 Y-0.44955
G01 X0.69569 Y-0.45371
G01 X0.70204 Y-0.45917
G01 X0.70480 Y-0.46422
G01 X0.68816 Y-0.46441
G01 X0.68600 Y-0.46317
G01 X0.68272 Y-0.46256
G01 X0.67100 Y-0.46274
G01 X0.66736 Y-0.46441
G01 X0.65071 Y-0.46422
G04 P0 ( dwell for no time -- G64 should not smooth over this point )
G00 Z0.07874 ( retract )

G00 X0.61169 Y-0.49016 ( rapid move to begin. )
G01 F3.93701
G01 Z-0.00197
G04 P0 ( dwell for no time -- G64 should not smooth over this point )
G01 F7.87402
G01 X0.61169 Y-0.49016
G01 X0.61169 Y-0.50021
G01 X0.61241 Y-0.50092
G01 X0.61718 Y-0.49940
G01 X0.61981 Y-0.49764
G01 X0.62204 Y-0.49540
G01 X0.62480 Y-0.49035
G01 X0.61169 Y-0.49016
G04 P0 ( dwell for no time -- G64 should not smooth over this point )
G00 Z0.07874 ( retract )

G00 X0.57071 Y-0.46422 ( rapid move to begin. )
G01 F3.93701
G01 Z-0.00197
G04 P0 ( dwell for no time -- G64 should not smooth over this point )
G01 F7.87402
G01 X0.57071 Y-0.46422
G01 X0.58736 Y-0.46441
G01 X0.59100 Y-0.46274
G01 X0.60272 Y-0.46256
G01 X0.60599 Y-0.46317
G01 X0.60816 Y-0.46441
G01 X0.62480 Y-0.46422
G01 X0.62204 Y-0.45917
G01 X0.61569 Y-0.45371
G01 X0.61371 Y-0.44955
G01 X0.61357 Y-0.43443
G01 X0.61299 Y-0.43207
G01 X0.61175 Y-0.43071
G01 X0.60957 Y-0.43004
G01 X0.58594 Y-0.43004
G01 X0.58376 Y-0.43071
G01 X0.58231 Y-0.43247
G01 X0.58201 Y-0.43423
G01 X0.58336 Y-0.43005
G01 X0.58368 Y-0.42667
G01 X0.58247 Y-0.42300
G01 X0.57872 Y-0.41901
G01 X0.57813 Y-0.41759
G01 X0.57807 Y-0.38553
G01 X0.57807 Y-0.41681
G01 X0.57930 Y-0.41963
G01 X0.58201 Y-0.42075
G01 X0.61350 Y-0.42075
G01 X0.61618 Y-0.41964
G01 X0.61750 Y-0.41638
G01 X0.61750 Y-0.38576
G01 X0.61716 Y-0.38380
G01 X0.61570 Y-0.38203
G01 X0.61306 Y-0.38132
G01 X0.58245 Y-0.38132
G01 X0.58049 Y-0.38166
G01 X0.57872 Y-0.38312
G01 X0.57807 Y-0.38553
G01 X0.57912 Y-0.38279
G01 X0.58209 Y-0.38138
G01 X0.61330 Y-0.38138
G01 X0.61603 Y-0.38243
G01 X0.61744 Y-0.38540
G01 X0.61744 Y-0.41681
G01 X0.61679 Y-0.41901
G01 X0.61339 Y-0.42251
G01 X0.61182 Y-0.42686
G01 X0.61350 Y-0.43416
G01 X0.61350 Y-0.44973
G01 X0.61320 Y-0.45123
G01 X0.61175 Y-0.45300
G01 X0.60957 Y-0.45366
G01 X0.58518 Y-0.45359
G01 X0.58316 Y-0.45251
G01 X0.58201 Y-0.44973
G01 X0.58201 Y-0.43423
G01 X0.58195 Y-0.44799
G01 X0.58127 Y-0.45141
G01 X0.57982 Y-0.45371
G01 X0.57347 Y-0.45917
G01 X0.57071 Y-0.46422
G04 P0 ( dwell for no time -- G64 should not smooth over this point )
G00 Z0.07874 ( retract )

G00 X0.57071 Y-0.49035 ( rapid move to begin. )
G01 F3.93701
G01 Z-0.00197
G04 P0 ( dwell for no time -- G64 should not smooth over this point )
G01 F7.87402
G01 X0.57071 Y-0.49035
G01 X0.58382 Y-0.49016
G01 X0.58382 Y-0.50021
G01 X0.58310 Y-0.50092
G01 X0.58122 Y-0.50059
G01 X0.57571 Y-0.49764
G01 X0.57347 Y-0.49540
G01 X0.57071 Y-0.49035
G04 P0 ( dwell for no time -- G64 should not smooth over this point )
G00 Z0.07874 ( retract )

G00 X0.64078 Y-0.53979 ( rapid move to begin. )
G01 F3.93701
G01 Z-0.00197
G04 P0 ( dwell for no time -- G64 should not smooth over this point )
G01 F7.87402
G01 X0.64078 Y-0.53979
G01 X0.64246 Y-0.53743
G01 X0.64331 Y-0.53311
G01 X0.64432 Y-0.53209
G01 X0.64867 Y-0.53209
G01 X0.65235 Y-0.53295
G01 X0.65265 Y-0.53692
G01 X0.65351 Y-0.53820
G01 X0.65552 Y-0.53927
G01 X0.66170 Y-0.53935
G01 X0.66565 Y-0.54029
G01 X0.67387 Y-0.54022
G01 X0.68142 Y-0.53905
G01 X0.68270 Y-0.53820
G01 X0.68377 Y-0.53618
G01 X0.68385 Y-0.51573
G01 X0.68355 Y-0.51422
G01 X0.68210 Y-0.51245
G01 X0.67310 Y-0.51085
G01 X0.66310 Y-0.51085
G01 X0.65929 Y-0.51171
G01 X0.64124 Y-0.51171
G01 X0.64080 Y-0.51127
G01 X0.64381 Y-0.50549
G01 X0.64918 Y-0.50094
G01 X0.65108 Y-0.49808
G01 X0.65175 Y-0.49485
G01 X0.65090 Y-0.49016
G01 X0.66736 Y-0.49016
G01 X0.67100 Y-0.49184
G01 X0.68272 Y-0.49201
G01 X0.68600 Y-0.49140
G01 X0.68816 Y-0.49016
G01 X0.70461 Y-0.49016
G01 X0.70380 Y-0.49277
G01 X0.69993 Y-0.49772
G01 X0.69881 Y-0.50011
G01 X0.69857 Y-0.50472
G01 X0.70071 Y-0.50882
G01 X0.70387 Y-0.51105
G01 X0.70652 Y-0.51165
G01 X0.71895 Y-0.51179
G01 X0.69960 Y-0.51179
G01 X0.69741 Y-0.51245
G01 X0.69632 Y-0.51354
G01 X0.69566 Y-0.51573
G01 X0.69566 Y-0.53541
G01 X0.69681 Y-0.53820
G01 X0.69883 Y-0.53927
G01 X0.72322 Y-0.53935
G01 X0.72541 Y-0.53869
G01 X0.72686 Y-0.53692
G01 X0.72712 Y-0.53558
G01 X0.72710 Y-0.51554
G01 X0.72617 Y-0.51322
G01 X0.72476 Y-0.51226
G01 X0.71895 Y-0.51179
G01 X0.72399 Y-0.51185
G01 X0.72649 Y-0.51354
G01 X0.72716 Y-0.51573
G01 X0.72713 Y-0.53785
G01 X0.72833 Y-0.54144
G01 X0.73305 Y-0.54595
G01 X0.73370 Y-0.54836
G01 X0.73370 Y-0.58732
G01 X0.73265 Y-0.59005
G01 X0.72967 Y-0.59146
G01 X0.69454 Y-0.59146
G01 X0.69181 Y-0.59042
G01 X0.69039 Y-0.58744
G01 X0.69068 Y-0.58904
G01 X0.69213 Y-0.59081
G01 X0.69477 Y-0.59152
G01 X0.72932 Y-0.59152
G01 X0.73128 Y-0.59118
G01 X0.73305 Y-0.58972
G01 X0.73376 Y-0.58708
G01 X0.73376 Y-0.54859
G01 X0.73236 Y-0.54529
G01 X0.72976 Y-0.54422
G01 X0.69433 Y-0.54422
G01 X0.69155 Y-0.54537
G01 X0.69039 Y-0.54815
G01 X0.69039 Y-0.58744
G01 X0.69025 Y-0.55964
G01 X0.68965 Y-0.55699
G01 X0.68771 Y-0.55409
G01 X0.68334 Y-0.55178
G01 X0.67774 Y-0.54653
G01 X0.67310 Y-0.54523
G01 X0.66968 Y-0.54591
G01 X0.66738 Y-0.54735
G01 X0.66521 Y-0.55006
G01 X0.66435 Y-0.55240
G01 X0.66223 Y-0.55390
G01 X0.65102 Y-0.55390
G01 X0.65102 Y-0.54815
G01 X0.65036 Y-0.54597
G01 X0.64785 Y-0.54429
G01 X0.64263 Y-0.54422
G01 X0.64078 Y-0.53979
G04 P0 ( dwell for no time -- G64 should not smooth over this point )
G00 Z0.07874 ( retract )

G00 X0.59559 Y-0.55289 ( rapid move to begin. )
G01 F3.93701
G01 Z-0.00197
G04 P0 ( dwell for no time -- G64 should not smooth over this point )
G01 F7.87402
G01 X0.59559 Y-0.55289
G01 X0.59559 Y-0.54657
G01 X0.59621 Y-0.54347
G01 X0.59918 Y-0.53791
G01 X0.60141 Y-0.53568
G01 X0.60697 Y-0.53271
G01 X0.61442 Y-0.53209
G01 X0.61543 Y-0.53311
G01 X0.61543 Y-0.54422
G01 X0.61089 Y-0.54429
G01 X0.60838 Y-0.54597
G01 X0.60772 Y-0.54815
G01 X0.60772 Y-0.55390
G01 X0.59661 Y-0.55390
G01 X0.59559 Y-0.55289
G04 P0 ( dwell for no time -- G64 should not smooth over this point )
G00 Z0.07874 ( retract )

G00 X0.59559 Y-0.58910 ( rapid move to begin. )
G01 F3.93701
G01 Z-0.00197
G04 P0 ( dwell for no time -- G64 should not smooth over this point )
G01 F7.87402
G01 X0.59559 Y-0.58910
G01 X0.59559 Y-0.58279
G01 X0.59661 Y-0.58178
G01 X0.60772 Y-0.58178
G01 X0.60802 Y-0.58903
G01 X0.60947 Y-0.59080
G01 X0.61165 Y-0.59146
G01 X0.64785 Y-0.59138
G01 X0.64927 Y-0.59080
G01 X0.65072 Y-0.58903
G01 X0.65102 Y-0.58178
G01 X0.66213 Y-0.58178
G01 X0.66315 Y-0.58279
G01 X0.66315 Y-0.58911
G01 X0.66253 Y-0.59221
G01 X0.65956 Y-0.59776
G01 X0.65469 Y-0.60176
G01 X0.64803 Y-0.60465
G01 X0.64565 Y-0.60738
G01 X0.64467 Y-0.61004
G01 X0.64455 Y-0.61266
G01 X0.64529 Y-0.61540
G01 X0.64670 Y-0.61761
G01 X0.65038 Y-0.62076
G01 X0.65102 Y-0.62316
G01 X0.65102 Y-0.66224
G01 X0.65004 Y-0.66469
G01 X0.64688 Y-0.66626
G01 X0.61174 Y-0.66626
G01 X0.60876 Y-0.66485
G01 X0.60788 Y-0.66271
G01 X0.60887 Y-0.66511
G01 X0.61209 Y-0.66633
G01 X0.64665 Y-0.66633
G01 X0.64928 Y-0.66562
G01 X0.65074 Y-0.66384
G01 X0.65109 Y-0.66189
G01 X0.65109 Y-0.62340
G01 X0.65000 Y-0.62044
G01 X0.64709 Y-0.61902
G01 X0.61165 Y-0.61902
G01 X0.60882 Y-0.62023
G01 X0.60777 Y-0.62282
G01 X0.60788 Y-0.66271
G01 X0.60777 Y-0.62218
G01 X0.60878 Y-0.62025
G01 X0.61309 Y-0.61612
G01 X0.61402 Y-0.61367
G01 X0.61407 Y-0.61004
G01 X0.61267 Y-0.60670
G01 X0.61071 Y-0.60465
G01 X0.60405 Y-0.60176
G01 X0.59918 Y-0.59776
G01 X0.59742 Y-0.59513
G01 X0.59559 Y-0.58910
G04 P0 ( dwell for no time -- G64 should not smooth over this point )
G00 Z0.07874 ( retract )

G00 X0.69033 Y-0.66189 ( rapid move to begin. )
G01 F3.93701
G01 Z-0.00197
G04 P0 ( dwell for no time -- G64 should not smooth over this point )
G01 F7.87402
G01 X0.69033 Y-0.66189
G01 X0.69033 Y-0.62339
G01 X0.69153 Y-0.62016
G01 X0.69477 Y-0.61896
G01 X0.72932 Y-0.61896
G01 X0.73255 Y-0.62017
G01 X0.73370 Y-0.62323
G01 X0.73370 Y-0.66205
G01 X0.73255 Y-0.66511
G01 X0.72949 Y-0.66626
G01 X0.69460 Y-0.66626
G01 X0.69153 Y-0.66512
G01 X0.69039 Y-0.66233
G01 X0.69155 Y-0.66511
G01 X0.69477 Y-0.66633
G01 X0.72932 Y-0.66633
G01 X0.73256 Y-0.66512
G01 X0.73376 Y-0.66189
G01 X0.73376 Y-0.62340
G01 X0.73256 Y-0.62016
G01 X0.72949 Y-0.61902
G01 X0.69460 Y-0.61902
G01 X0.69155 Y-0.62017
G01 X0.69039 Y-0.62323
G01 X0.69033 Y-0.66189
G04 P0 ( dwell for no time -- G64 should not smooth over this point )
G00 Z0.07874 ( retract )

G00 X0.59813 Y-0.77795 ( rapid move to begin. )
G01 F3.93701
G01 Z-0.00197
G04 P0 ( dwell for no time -- G64 should not smooth over this point )
G01 F7.87402
G01 X0.59813 Y-0.77795
G01 X0.59857 Y-0.77839
G01 X0.61150 Y-0.77839
G01 X0.61150 Y-0.76736
G01 X0.61078 Y-0.76664
G01 X0.60890 Y-0.76697
G01 X0.60338 Y-0.76993
G01 X0.59939 Y-0.77480
G01 X0.59813 Y-0.77795
G04 P0 ( dwell for no time -- G64 should not smooth over this point )
G00 Z0.07874 ( retract )

G00 X0.32913 Y-0.73930 ( rapid move to begin. )
G01 F3.93701
G01 Z-0.00197
G04 P0 ( dwell for no time -- G64 should not smooth over this point )
G01 F7.87402
G01 X0.32913 Y-0.73930
G01 X0.33112 Y-0.74927
G01 X0.33501 Y-0.75866
G01 X0.34066 Y-0.76711
G01 X0.34785 Y-0.77430
G01 X0.35630 Y-0.77995
G01 X0.36569 Y-0.78384
G01 X0.37566 Y-0.78583
G01 X0.38583 Y-0.78583
G01 X0.39580 Y-0.78384
G01 X0.40520 Y-0.77995
G01 X0.41353 Y-0.77453
G01 X0.41791 Y-0.77375
G01 X0.42142 Y-0.77477
G01 X0.42423 Y-0.77710
G01 X0.42709 Y-0.78454
G01 X0.42949 Y-0.78610
G01 X0.44938 Y-0.78608
G01 X0.45115 Y-0.78463
G01 X0.45181 Y-0.78244
G01 X0.45181 Y-0.75291
G01 X0.45151 Y-0.75141
G01 X0.45006 Y-0.74964
G01 X0.44787 Y-0.74898
G01 X0.43016 Y-0.74898
G01 X0.42797 Y-0.74964
G01 X0.42688 Y-0.75073
G01 X0.42622 Y-0.75291
G01 X0.42622 Y-0.78239
G01 X0.42650 Y-0.78395
G01 X0.42864 Y-0.78609
G01 X0.45084 Y-0.78626
G01 X0.45558 Y-0.78817
G01 X0.45789 Y-0.79094
G01 X0.45878 Y-0.79339
G01 X0.45877 Y-0.79699
G01 X0.45776 Y-0.79962
G01 X0.45493 Y-0.80263
G01 X0.44925 Y-0.80583
G01 X0.44337 Y-0.81297
G01 X0.43787 Y-0.81637
G01 X0.43637 Y-0.81862
G01 X0.43587 Y-0.82127
G01 X0.43730 Y-0.81723
G01 X0.44067 Y-0.81471
G01 X0.45289 Y-0.81438
G01 X0.45576 Y-0.81514
G01 X0.45753 Y-0.81646
G01 X0.45750 Y-0.83195
G01 X0.45524 Y-0.83353
G01 X0.45289 Y-0.83404
G01 X0.44228 Y-0.83403
G01 X0.43898 Y-0.83289
G01 X0.43598 Y-0.82851
G01 X0.43580 Y-0.82170
G01 X0.43620 Y-0.82904
G01 X0.43701 Y-0.83100
G01 X0.43885 Y-0.83285
G01 X0.44386 Y-0.83588
G01 X0.44699 Y-0.84034
G01 X0.45188 Y-0.84435
G01 X0.45449 Y-0.84517
G01 X0.45486 Y-0.83631
G01 X0.45750 Y-0.83195
G01 X0.45753 Y-0.81650
G01 X0.46004 Y-0.81486
G01 X0.46265 Y-0.81144
G01 X0.46676 Y-0.80962
G01 X0.47237 Y-0.80958
G01 X0.47610 Y-0.81089
G01 X0.47781 Y-0.81232
G01 X0.49014 Y-0.81232
G01 X0.48771 Y-0.80807
G01 X0.48548 Y-0.80583
G01 X0.47495 Y-0.80043
G01 X0.47335 Y-0.79836
G01 X0.47237 Y-0.79570
G01 X0.47242 Y-0.79207
G01 X0.47335 Y-0.78962
G01 X0.47718 Y-0.78594
G01 X0.45772 Y-0.78638
G01 X0.45493 Y-0.78522
G01 X0.45378 Y-0.78244
G01 X0.45378 Y-0.75291
G01 X0.45444 Y-0.75073
G01 X0.45553 Y-0.74964
G01 X0.45785 Y-0.74898
G01 X0.47535 Y-0.74898
G01 X0.47805 Y-0.75016
G01 X0.47943 Y-0.75335
G01 X0.47937 Y-0.78244
G01 X0.47823 Y-0.78524
G01 X0.47718 Y-0.78594
G01 X0.47842 Y-0.78488
G01 X0.47931 Y-0.78262
G01 X0.47937 Y-0.75291
G01 X0.47872 Y-0.75072
G01 X0.47695 Y-0.74926
G01 X0.47500 Y-0.74891
G01 X0.45815 Y-0.74891
G01 X0.45361 Y-0.74985
G01 X0.45051 Y-0.74958
G01 X0.44679 Y-0.74830
G01 X0.44488 Y-0.74694
G01 X0.44313 Y-0.74471
G01 X0.44222 Y-0.74227
G01 X0.44207 Y-0.73945
G01 X0.44272 Y-0.73692
G01 X0.44555 Y-0.73328
G01 X0.44784 Y-0.73202
G01 X0.45548 Y-0.72975
G01 X0.45811 Y-0.72799
G01 X0.46236 Y-0.72289
G01 X0.46553 Y-0.72036
G01 X0.47292 Y-0.71945
G01 X0.45772 Y-0.71945
G01 X0.45493 Y-0.71830
G01 X0.45378 Y-0.71551
G01 X0.45378 Y-0.68598
G01 X0.45444 Y-0.68380
G01 X0.45621 Y-0.68235
G01 X0.47557 Y-0.68209
G01 X0.47762 Y-0.68271
G01 X0.47881 Y-0.68413
G01 X0.47937 Y-0.68598
G01 X0.47931 Y-0.71628
G01 X0.47823 Y-0.71831
G01 X0.47694 Y-0.71915
G01 X0.47292 Y-0.71945
G01 X0.47746 Y-0.71872
G01 X0.47844 Y-0.71792
G01 X0.47931 Y-0.71571
G01 X0.47909 Y-0.68447
G01 X0.47763 Y-0.68270
G01 X0.47620 Y-0.68210
G01 X0.46853 Y-0.68191
G01 X0.46520 Y-0.68094
G01 X0.46301 Y-0.67940
G01 X0.45811 Y-0.67351
G01 X0.45548 Y-0.67175
G01 X0.45271 Y-0.67060
G01 X0.45238 Y-0.67093
G01 X0.45238 Y-0.69120
G01 X0.45358 Y-0.69418
G01 X0.45372 Y-0.70571
G01 X0.45311 Y-0.70899
G01 X0.45181 Y-0.71121
G01 X0.45173 Y-0.71628
G01 X0.45006 Y-0.71879
G01 X0.44787 Y-0.71945
G01 X0.43016 Y-0.71945
G01 X0.42797 Y-0.71879
G01 X0.42652 Y-0.71702
G01 X0.42622 Y-0.70940
G01 X0.42493 Y-0.70707
G01 X0.42429 Y-0.70372
G01 X0.42443 Y-0.69417
G01 X0.42565 Y-0.69117
G01 X0.42532 Y-0.67060
G01 X0.41992 Y-0.67351
G01 X0.41768 Y-0.67574
G01 X0.41323 Y-0.68442
G01 X0.41013 Y-0.68704
G01 X0.40815 Y-0.68781
G01 X0.40431 Y-0.68791
G01 X0.39582 Y-0.68459
G01 X0.38583 Y-0.68260
G01 X0.37566 Y-0.68260
G01 X0.36569 Y-0.68458
G01 X0.35630 Y-0.68847
G01 X0.34785 Y-0.69412
G01 X0.34066 Y-0.70131
G01 X0.33501 Y-0.70976
G01 X0.33112 Y-0.71916
G01 X0.32913 Y-0.72913
G01 X0.32913 Y-0.73930
G04 P0 ( dwell for no time -- G64 should not smooth over this point )
G00 Z0.07874 ( retract )

G00 X0.33626 Y-0.73421 ( rapid move to begin. )
G01 F3.93701
G01 Z-0.00197
G04 P0 ( dwell for no time -- G64 should not smooth over this point )
G01 F7.87402
G01 X0.33626 Y-0.73421
G01 X0.33734 Y-0.72456
G01 X0.34011 Y-0.71612
G01 X0.34453 Y-0.70841
G01 X0.35069 Y-0.70144
G01 X0.35850 Y-0.69568
G01 X0.36662 Y-0.69205
G01 X0.37610 Y-0.68997
G01 X0.38499 Y-0.68995
G01 X0.39488 Y-0.69205
G01 X0.40299 Y-0.69568
G01 X0.41081 Y-0.70144
G01 X0.41674 Y-0.70806
G01 X0.42139 Y-0.71612
G01 X0.42416 Y-0.72456
G01 X0.42524 Y-0.73421
G01 X0.42416 Y-0.74386
G01 X0.42139 Y-0.75231
G01 X0.41696 Y-0.76002
G01 X0.41081 Y-0.76698
G01 X0.40299 Y-0.77274
G01 X0.39488 Y-0.77638
G01 X0.38540 Y-0.77846
G01 X0.37651 Y-0.77848
G01 X0.36662 Y-0.77638
G01 X0.35850 Y-0.77274
G01 X0.35069 Y-0.76698
G01 X0.34453 Y-0.76002
G01 X0.34011 Y-0.75231
G01 X0.33734 Y-0.74386
G01 X0.33626 Y-0.73421
G04 P0 ( dwell for no time -- G64 should not smooth over this point )
G00 Z0.07874 ( retract )

G00 X0.48024 Y-0.84517 ( rapid move to begin. )
G01 F3.93701
G01 Z-0.00197
G04 P0 ( dwell for no time -- G64 should not smooth over this point )
G01 F7.87402
G01 X0.48024 Y-0.84517
G01 X0.48284 Y-0.84435
G01 X0.48548 Y-0.84259
G01 X0.48771 Y-0.84036
G01 X0.49014 Y-0.83610
G01 X0.48024 Y-0.83610
G01 X0.48024 Y-0.84517
G04 P0 ( dwell for no time -- G64 should not smooth over this point )
G00 Z0.07874 ( retract )

G00 X0.59807 Y-0.80936 ( rapid move to begin. )
G01 F3.93701
G01 Z-0.00197
G04 P0 ( dwell for no time -- G64 should not smooth over this point )
G01 F7.87402
G01 X0.59807 Y-0.80936
G01 X0.59807 Y-0.80663
G01 X0.60337 Y-0.80143
G01 X0.60601 Y-0.79967
G01 X0.60969 Y-0.79831
G01 X0.60976 Y-0.80286
G01 X0.61150 Y-0.80540
G01 X0.61150 Y-0.81059
G01 X0.60976 Y-0.81313
G01 X0.60969 Y-0.81768
G01 X0.60601 Y-0.81632
G01 X0.60337 Y-0.81456
G01 X0.59807 Y-0.80936
G04 P0 ( dwell for no time -- G64 should not smooth over this point )
G00 Z0.07874 ( retract )

G00 X0.59813 Y-0.83804 ( rapid move to begin. )
G01 F3.93701
G01 Z-0.00197
G04 P0 ( dwell for no time -- G64 should not smooth over this point )
G01 F7.87402
G01 X0.59813 Y-0.83804
G01 X0.59857 Y-0.83760
G01 X0.61150 Y-0.83760
G01 X0.61150 Y-0.84863
G01 X0.61078 Y-0.84935
G01 X0.60890 Y-0.84902
G01 X0.60338 Y-0.84606
G01 X0.59939 Y-0.84119
G01 X0.59813 Y-0.83804
G04 P0 ( dwell for no time -- G64 should not smooth over this point )
G00 Z0.07874 ( retract )

G00 X0.63937 Y-0.83689 ( rapid move to begin. )
G01 F3.93701
G01 Z-0.00197
G04 P0 ( dwell for no time -- G64 should not smooth over this point )
G01 F7.87402
G01 X0.63937 Y-0.83689
G01 X0.64052 Y-0.83577
G01 X0.64118 Y-0.83359
G01 X0.64118 Y-0.81390
G01 X0.64052 Y-0.81171
G01 X0.63937 Y-0.81059
G01 X0.63937 Y-0.80540
G01 X0.64052 Y-0.80428
G01 X0.64118 Y-0.80209
G01 X0.64118 Y-0.78241
G01 X0.64052 Y-0.78022
G01 X0.63937 Y-0.77910
G01 X0.63937 Y-0.76736
G01 X0.64009 Y-0.76664
G01 X0.64485 Y-0.76817
G01 X0.64975 Y-0.77220
G01 X0.65238 Y-0.77582
G01 X0.65599 Y-0.77795
G01 X0.68034 Y-0.77847
G01 X0.65693 Y-0.77847
G01 X0.65474 Y-0.77913
G01 X0.65329 Y-0.78090
G01 X0.65299 Y-0.78241
G01 X0.65299 Y-0.80209
G01 X0.65414 Y-0.80487
G01 X0.65616 Y-0.80595
G01 X0.68055 Y-0.80603
G01 X0.68274 Y-0.80536
G01 X0.68413 Y-0.80367
G01 X0.68455 Y-0.80165
G01 X0.68455 Y-0.78285
G01 X0.68421 Y-0.78089
G01 X0.68275 Y-0.77912
G01 X0.68034 Y-0.77847
G01 X0.68274 Y-0.77913
G01 X0.68449 Y-0.78249
G01 X0.68449 Y-0.80209
G01 X0.68308 Y-0.80868
G01 X0.68414 Y-0.81274
G01 X0.68274 Y-0.81063
G01 X0.68055 Y-0.80996
G01 X0.65693 Y-0.80996
G01 X0.65474 Y-0.81063
G01 X0.65329 Y-0.81239
G01 X0.65299 Y-0.81390
G01 X0.65299 Y-0.83359
G01 X0.65414 Y-0.83637
G01 X0.65616 Y-0.83745
G01 X0.68046 Y-0.83752
G01 X0.68241 Y-0.83696
G01 X0.68395 Y-0.83539
G01 X0.68455 Y-0.83315
G01 X0.68414 Y-0.81274
G01 X0.68449 Y-0.83359
G01 X0.68384 Y-0.83578
G01 X0.68207 Y-0.83724
G01 X0.68010 Y-0.83759
G01 X0.65619 Y-0.83798
G01 X0.65263 Y-0.83994
G01 X0.64748 Y-0.84606
G01 X0.64485 Y-0.84782
G01 X0.64009 Y-0.84935
G01 X0.63937 Y-0.84863
G01 X0.63937 Y-0.83689
G04 P0 ( dwell for no time -- G64 should not smooth over this point )
G00 Z0.07874 ( retract )

G00 X0.67660 Y-0.94492 ( rapid move to begin. )
G01 F3.93701
G01 Z-0.00197
G04 P0 ( dwell for no time -- G64 should not smooth over this point )
G01 F7.87402
G01 X0.67660 Y-0.94492
G01 X0.67813 Y-0.94015
G01 X0.67988 Y-0.93752
G01 X0.68578 Y-0.93262
G01 X0.68810 Y-0.92845
G01 X0.68836 Y-0.90490
G01 X0.68956 Y-0.90166
G01 X0.69264 Y-0.90051
G01 X0.71177 Y-0.90051
G01 X0.71483 Y-0.90167
G01 X0.71598 Y-0.90472
G01 X0.71484 Y-0.90165
G01 X0.71161 Y-0.90045
G01 X0.69280 Y-0.90045
G01 X0.68958 Y-0.90167
G01 X0.68842 Y-0.90445
G01 X0.68842 Y-0.92807
G01 X0.68909 Y-0.93026
G01 X0.69159 Y-0.93194
G01 X0.71205 Y-0.93201
G01 X0.71483 Y-0.93086
G01 X0.71598 Y-0.92807
G01 X0.71598 Y-0.90472
G01 X0.71650 Y-0.92902
G01 X0.71863 Y-0.93262
G01 X0.72452 Y-0.93752
G01 X0.72628 Y-0.94015
G01 X0.72781 Y-0.94492
G01 X0.72710 Y-0.94563
G01 X0.71535 Y-0.94563
G01 X0.71423 Y-0.94449
G01 X0.71205 Y-0.94382
G01 X0.69236 Y-0.94382
G01 X0.69017 Y-0.94449
G01 X0.68905 Y-0.94563
G01 X0.67731 Y-0.94563
G01 X0.67660 Y-0.94492
G04 P0 ( dwell for no time -- G64 should not smooth over this point )
G00 Z0.07874 ( retract )

G00 X0.67660 Y-0.97422 ( rapid move to begin. )
G01 F3.93701
G01 Z-0.00197
G04 P0 ( dwell for no time -- G64 should not smooth over this point )
G01 F7.87402
G01 X0.67660 Y-0.97422
G01 X0.67813 Y-0.97899
G01 X0.67988 Y-0.98162
G01 X0.68475 Y-0.98562
G01 X0.68790 Y-0.98687
G01 X0.68835 Y-0.98643
G01 X0.68835 Y-0.97351
G01 X0.67731 Y-0.97351
G01 X0.67660 Y-0.97422
G04 P0 ( dwell for no time -- G64 should not smooth over this point )
G00 Z0.07874 ( retract )

G00 X0.71606 Y-0.98643 ( rapid move to begin. )
G01 F3.93701
G01 Z-0.00197
G04 P0 ( dwell for no time -- G64 should not smooth over this point )
G01 F7.87402
G01 X0.71606 Y-0.98643
G01 X0.71606 Y-0.97351
G01 X0.72713 Y-0.97351
G01 X0.72785 Y-0.97420
G01 X0.72749 Y-0.97608
G01 X0.72452 Y-0.98162
G01 X0.71966 Y-0.98562
G01 X0.71673 Y-0.98683
G01 X0.71606 Y-0.98643
G04 P0 ( dwell for no time -- G64 should not smooth over this point )
G00 Z0.07874 ( retract )

G00 X0.74424 Y-0.96820 ( rapid move to begin. )
G01 F3.93701
G01 Z-0.00197
G04 P0 ( dwell for no time -- G64 should not smooth over this point )
G01 F7.87402
G01 X0.74424 Y-0.96820
G01 X0.74495 Y-0.96890
G01 X0.75673 Y-0.96890
G01 X0.75785 Y-0.96775
G01 X0.76004 Y-0.96709
G01 X0.77972 Y-0.96709
G01 X0.78251 Y-0.96824
G01 X0.78358 Y-0.97025
G01 X0.78366 Y-0.97389
G01 X0.78461 Y-0.97783
G01 X0.78461 Y-0.98783
G01 X0.78374 Y-0.99164
G01 X0.78374 Y-1.00969
G01 X0.78418 Y-1.01014
G01 X0.78974 Y-1.00891
G01 X0.79329 Y-1.00993
G01 X0.79613 Y-1.01230
G01 X0.79832 Y-1.01689
G01 X0.80010 Y-1.01834
G01 X0.83070 Y-1.01869
G01 X0.83256 Y-1.01837
G01 X0.83605 Y-1.01653
G01 X0.83966 Y-1.01611
G01 X0.84384 Y-1.01758
G01 X0.84689 Y-1.02107
G01 X0.84781 Y-1.02493
G01 X0.84768 Y-1.03429
G01 X0.84568 Y-1.03803
G01 X0.84163 Y-1.04062
G01 X0.83682 Y-1.04072
G01 X0.83108 Y-1.03831
G01 X0.80188 Y-1.03831
G01 X0.79882 Y-1.03945
G01 X0.79761 Y-1.04269
G01 X0.79770 Y-1.07380
G01 X0.79768 Y-1.04225
G01 X0.79883 Y-1.03946
G01 X0.80205 Y-1.03825
G01 X0.83070 Y-1.03825
G01 X0.83407 Y-1.03964
G01 X0.83508 Y-1.04225
G01 X0.83508 Y-1.07374
G01 X0.83407 Y-1.07618
G01 X0.83127 Y-1.07763
G01 X0.80182 Y-1.07768
G01 X0.79909 Y-1.07664
G01 X0.79770 Y-1.07380
G01 X0.79796 Y-1.07526
G01 X0.79942 Y-1.07703
G01 X0.80205 Y-1.07774
G01 X0.83191 Y-1.07762
G01 X0.83443 Y-1.07594
G01 X0.83560 Y-1.07269
G01 X0.83790 Y-1.06935
G01 X0.84108 Y-1.06750
G01 X0.84317 Y-1.06709
G01 X0.84626 Y-1.06739
G01 X0.85042 Y-1.06956
G01 X0.85225 Y-1.06987
G01 X0.87695 Y-1.06952
G01 X0.87871 Y-1.06806
G01 X0.87937 Y-1.06587
G01 X0.87932 Y-1.04995
G01 X0.87777 Y-1.04717
G01 X0.87871 Y-1.04793
G01 X0.87937 Y-1.05012
G01 X0.87943 Y-1.06543
G01 X0.87872 Y-1.06807
G01 X0.87535 Y-1.06981
G01 X0.85143 Y-1.06973
G01 X0.84886 Y-1.06845
G01 X0.84787 Y-1.06587
G01 X0.84817 Y-1.04862
G01 X0.84962 Y-1.04685
G01 X0.85181 Y-1.04618
G01 X0.87543 Y-1.04618
G01 X0.87777 Y-1.04717
G01 X0.87576 Y-1.04432
G01 X0.87484 Y-1.04038
G01 X0.87569 Y-1.03642
G01 X0.87929 Y-1.03120
G01 X0.87908 Y-1.01381
G01 X0.87729 Y-1.01131
G01 X0.87535 Y-1.01075
G01 X0.85139 Y-1.01103
G01 X0.84904 Y-1.01194
G01 X0.85225 Y-1.01069
G01 X0.87499 Y-1.01069
G01 X0.87695 Y-1.01103
G01 X0.87872 Y-1.01249
G01 X0.87943 Y-1.01513
G01 X0.87931 Y-1.03121
G01 X0.87694 Y-1.03407
G01 X0.85104 Y-1.03430
G01 X0.84854 Y-1.03262
G01 X0.84787 Y-1.02844
G01 X0.84795 Y-1.01392
G01 X0.84904 Y-1.01194
G01 X0.84613 Y-1.01307
G01 X0.84249 Y-1.01316
G01 X0.83830 Y-1.01118
G01 X0.83657 Y-1.00920
G01 X0.83543 Y-1.00659
G01 X0.83503 Y-0.98308
G01 X0.83508 Y-1.01469
G01 X0.83400 Y-1.01738
G01 X0.83108 Y-1.01862
G01 X0.80096 Y-1.01835
G01 X0.79872 Y-1.01721
G01 X0.79768 Y-1.01469
G01 X0.79768 Y-0.98319
G01 X0.79883 Y-0.98041
G01 X0.80161 Y-0.97925
G01 X0.83114 Y-0.97925
G01 X0.83393 Y-0.98041
G01 X0.83503 Y-0.98308
G01 X0.83394 Y-0.98040
G01 X0.83023 Y-0.97728
G01 X0.82848 Y-0.97280
G01 X0.82879 Y-0.96941
G01 X0.83016 Y-0.96548
G01 X0.83010 Y-0.94173
G01 X0.82857 Y-0.93889
G01 X0.82622 Y-0.93792
G01 X0.80654 Y-0.93792
G01 X0.80359 Y-0.93945
G01 X0.80284 Y-0.94127
G01 X0.80260 Y-0.94699
G01 X0.80288 Y-0.94034
G01 X0.80592 Y-0.93656
G01 X0.80713 Y-0.93289
G01 X0.80628 Y-0.92815
G01 X0.80266 Y-0.92294
G01 X0.80288 Y-0.89703
G01 X0.80434 Y-0.89526
G01 X0.80697 Y-0.89455
G01 X0.82578 Y-0.89455
G01 X0.82842 Y-0.89526
G01 X0.82988 Y-0.89703
G01 X0.83016 Y-0.89863
G01 X0.83000 Y-0.92256
G01 X0.83016 Y-0.89855
G01 X0.82874 Y-0.89566
G01 X0.82601 Y-0.89461
G01 X0.80674 Y-0.89461
G01 X0.80401 Y-0.89566
G01 X0.80287 Y-0.89788
G01 X0.80266 Y-0.92232
G01 X0.80375 Y-0.92495
G01 X0.80577 Y-0.92603
G01 X0.82622 Y-0.92611
G01 X0.82900 Y-0.92495
G01 X0.83000 Y-0.92256
G01 X0.82951 Y-0.92437
G01 X0.82655 Y-0.92797
G01 X0.82563 Y-0.93191
G01 X0.82647 Y-0.93588
G01 X0.83010 Y-0.94108
G01 X0.83022 Y-0.96503
G01 X0.82900 Y-0.96826
G01 X0.82622 Y-0.96941
G01 X0.80577 Y-0.96934
G01 X0.80375 Y-0.96826
G01 X0.80260 Y-0.96548
G01 X0.80260 Y-0.94699
G01 X0.80239 Y-0.95180
G01 X0.79992 Y-0.95655
G01 X0.79702 Y-0.95848
G01 X0.79283 Y-0.95909
G01 X0.79018 Y-0.95848
G01 X0.78694 Y-0.95641
G01 X0.78477 Y-0.95370
G01 X0.78372 Y-0.94960
G01 X0.78366 Y-0.92780
G01 X0.78366 Y-0.95134
G01 X0.78251 Y-0.95412
G01 X0.77972 Y-0.95527
G01 X0.75927 Y-0.95520
G01 X0.75726 Y-0.95412
G01 X0.75610 Y-0.95134
G01 X0.75610 Y-0.92772
G01 X0.75724 Y-0.92492
G01 X0.76004 Y-0.92378
G01 X0.77928 Y-0.92372
G01 X0.78251 Y-0.92493
G01 X0.78366 Y-0.92780
G01 X0.78225 Y-0.92483
G01 X0.77951 Y-0.92378
G01 X0.75991 Y-0.92383
G01 X0.75726 Y-0.92493
G01 X0.75616 Y-0.92759
G01 X0.75604 Y-0.94960
G01 X0.75536 Y-0.95302
G01 X0.75345 Y-0.95589
G01 X0.74756 Y-0.96078
G01 X0.74580 Y-0.96342
G01 X0.74424 Y-0.96820
G04 P0 ( dwell for no time -- G64 should not smooth over this point )
G00 Z0.07874 ( retract )

G00 X0.74427 Y-0.99749 ( rapid move to begin. )
G01 F3.93701
G01 Z-0.00197
G04 P0 ( dwell for no time -- G64 should not smooth over this point )
G01 F7.87402
G01 X0.74427 Y-0.99749
G01 X0.74580 Y-1.00225
G01 X0.74756 Y-1.00489
G01 X0.75243 Y-1.00888
G01 X0.75558 Y-1.01014
G01 X0.75602 Y-1.00969
G01 X0.75602 Y-0.99677
G01 X0.74499 Y-0.99677
G01 X0.74427 Y-0.99749
G04 P0 ( dwell for no time -- G64 should not smooth over this point )
G00 Z0.07874 ( retract )

G00 X0.85057 Y-0.96205 ( rapid move to begin. )
G01 F3.93701
G01 Z-0.00197
G04 P0 ( dwell for no time -- G64 should not smooth over this point )
G01 F7.87402
G01 X0.85057 Y-0.96205
G01 X0.85129 Y-0.96134
G01 X0.86232 Y-0.96134
G01 X0.86232 Y-0.97426
G01 X0.86188 Y-0.97470
G01 X0.85873 Y-0.97345
G01 X0.85386 Y-0.96945
G01 X0.85210 Y-0.96682
G01 X0.85057 Y-0.96205
G04 P0 ( dwell for no time -- G64 should not smooth over this point )
G00 Z0.07874 ( retract )

G00 X0.89004 Y-0.97426 ( rapid move to begin. )
G01 F3.93701
G01 Z-0.00197
G04 P0 ( dwell for no time -- G64 should not smooth over this point )
G01 F7.87402
G01 X0.89004 Y-0.97426
G01 X0.89004 Y-0.96134
G01 X0.90107 Y-0.96134
G01 X0.90179 Y-0.96205
G01 X0.90145 Y-0.96393
G01 X0.89850 Y-0.96945
G01 X0.89363 Y-0.97345
G01 X0.89071 Y-0.97466
G01 X0.89004 Y-0.97426
G04 P0 ( dwell for no time -- G64 should not smooth over this point )
G00 Z0.07874 ( retract )

G00 X0.85057 Y-0.93275 ( rapid move to begin. )
G01 F3.93701
G01 Z-0.00197
G04 P0 ( dwell for no time -- G64 should not smooth over this point )
G01 F7.87402
G01 X0.85057 Y-0.93275
G01 X0.85210 Y-0.92798
G01 X0.85386 Y-0.92535
G01 X0.85975 Y-0.92045
G01 X0.86207 Y-0.91629
G01 X0.86234 Y-0.89273
G01 X0.86354 Y-0.88949
G01 X0.86661 Y-0.88835
G01 X0.88575 Y-0.88835
G01 X0.88881 Y-0.88950
G01 X0.88996 Y-0.89256
G01 X0.88882 Y-0.88949
G01 X0.88558 Y-0.88828
G01 X0.86678 Y-0.88828
G01 X0.86355 Y-0.88950
G01 X0.86240 Y-0.89228
G01 X0.86240 Y-0.91590
G01 X0.86355 Y-0.91869
G01 X0.86557 Y-0.91977
G01 X0.88602 Y-0.91984
G01 X0.88881 Y-0.91869
G01 X0.88996 Y-0.91590
G01 X0.88996 Y-0.89256
G01 X0.89048 Y-0.91685
G01 X0.89261 Y-0.92045
G01 X0.89850 Y-0.92535
G01 X0.90026 Y-0.92798
G01 X0.90179 Y-0.93275
G01 X0.90107 Y-0.93346
G01 X0.88933 Y-0.93346
G01 X0.88821 Y-0.93232
G01 X0.88602 Y-0.93165
G01 X0.86634 Y-0.93165
G01 X0.86415 Y-0.93232
G01 X0.86303 Y-0.93346
G01 X0.85129 Y-0.93346
G01 X0.85057 Y-0.93275
G04 P0 ( dwell for no time -- G64 should not smooth over this point )
G00 Z0.07874 ( retract )

G00 X0.95606 Y-0.80772 ( rapid move to begin. )
G01 F3.93701
G01 Z-0.00197
G04 P0 ( dwell for no time -- G64 should not smooth over this point )
G01 F7.87402
G01 X0.95606 Y-0.80772
G01 X0.96906 Y-0.80772
G01 X0.97156 Y-0.80942
G01 X0.97439 Y-0.81014
G01 X1.00110 Y-0.81000
G01 X0.97605 Y-0.81030
G01 X0.97428 Y-0.81175
G01 X0.97370 Y-0.81317
G01 X0.97369 Y-0.82852
G01 X0.97421 Y-0.83075
G01 X0.97679 Y-0.83276
G01 X1.00308 Y-0.83227
G01 X1.00506 Y-0.82967
G01 X1.00518 Y-0.81438
G01 X1.00447 Y-0.81174
G01 X1.00269 Y-0.81028
G01 X1.00110 Y-0.81000
G01 X1.00380 Y-0.81119
G01 X1.00483 Y-0.81306
G01 X1.00504 Y-0.82966
G01 X1.00132 Y-0.83459
G01 X1.00011 Y-0.83826
G01 X1.00095 Y-0.84300
G01 X1.00316 Y-0.84601
G01 X1.00118 Y-0.84543
G01 X0.97756 Y-0.84543
G01 X0.97550 Y-0.84603
G01 X0.97370 Y-0.84860
G01 X0.97362 Y-0.86413
G01 X0.97428 Y-0.86652
G01 X0.97664 Y-0.86809
G01 X1.00098 Y-0.86827
G01 X1.00338 Y-0.86762
G01 X1.00484 Y-0.86584
G01 X1.00518 Y-0.86389
G01 X1.00512 Y-0.84937
G01 X1.00445 Y-0.84718
G01 X1.00316 Y-0.84601
G01 X1.00507 Y-0.84920
G01 X1.00512 Y-0.86433
G01 X1.00482 Y-0.86584
G01 X1.00337 Y-0.86760
G01 X1.00074 Y-0.86833
G01 X0.97800 Y-0.86833
G01 X0.97605 Y-0.86799
G01 X0.97427 Y-0.86653
G01 X0.97356 Y-0.86389
G01 X0.97368 Y-0.84860
G01 X0.97791 Y-0.84263
G01 X0.97863 Y-0.84001
G01 X0.97829 Y-0.83654
G01 X0.97670 Y-0.83353
G01 X0.97390 Y-0.83041
G01 X0.97316 Y-0.82385
G01 X0.97205 Y-0.82137
G01 X0.96959 Y-0.81890
G01 X0.96560 Y-0.81749
G01 X0.96292 Y-0.81756
G01 X0.95678 Y-0.81946
G01 X0.95606 Y-0.81875
G01 X0.95606 Y-0.80772
G04 P0 ( dwell for no time -- G64 should not smooth over this point )
G00 Z0.07874 ( retract )

G00 X0.87218 Y-0.73535 ( rapid move to begin. )
G01 F3.93701
G01 Z-0.00197
G04 P0 ( dwell for no time -- G64 should not smooth over this point )
G01 F7.87402
G01 X0.87218 Y-0.73535
G01 X0.87224 Y-0.71618
G01 X0.87254 Y-0.71459
G01 X0.87399 Y-0.71283
G01 X0.87638 Y-0.71217
G01 X0.89980 Y-0.71217
G01 X0.90199 Y-0.71283
G01 X0.90308 Y-0.71391
G01 X0.90374 Y-0.71610
G01 X0.90374 Y-0.73579
G01 X0.90344 Y-0.73729
G01 X0.90199 Y-0.73906
G01 X0.89980 Y-0.73972
G01 X0.87541 Y-0.73965
G01 X0.87340 Y-0.73857
G01 X0.87224 Y-0.73558
G01 X0.87325 Y-0.73823
G01 X0.87541 Y-0.73967
G01 X0.89906 Y-0.73988
G01 X0.90112 Y-0.74034
G01 X0.90435 Y-0.74237
G01 X0.90925 Y-0.74826
G01 X0.91188 Y-0.75002
G01 X0.91663 Y-0.75160
G01 X0.92201 Y-0.74674
G01 X0.92456 Y-0.74577
G01 X0.92804 Y-0.74577
G01 X0.93126 Y-0.74711
G01 X0.93324 Y-0.74897
G01 X0.93506 Y-0.75279
G01 X0.93506 Y-0.76107
G01 X0.93288 Y-0.76536
G01 X0.92976 Y-0.76756
G01 X0.92568 Y-0.76855
G01 X0.92007 Y-0.77154
G01 X0.91518 Y-0.77743
G01 X0.91299 Y-0.77897
G01 X0.90889 Y-0.78002
G01 X0.88745 Y-0.78002
G01 X0.88482 Y-0.78074
G01 X0.88373 Y-0.78183
G01 X0.88307 Y-0.78429
G01 X0.88442 Y-0.78114
G01 X0.88728 Y-0.78008
G01 X0.91063 Y-0.78008
G01 X0.91282 Y-0.78074
G01 X0.91390 Y-0.78183
G01 X0.91457 Y-0.78402
G01 X0.91457 Y-0.80370
G01 X0.91427 Y-0.80521
G01 X0.91282 Y-0.80697
G01 X0.91063 Y-0.80764
G01 X0.88549 Y-0.80736
G01 X0.88372 Y-0.80590
G01 X0.88307 Y-0.80349
G01 X0.88307 Y-0.78429
G01 X0.88301 Y-0.80326
G01 X0.88482 Y-0.80680
G01 X0.88587 Y-0.80737
G01 X0.91157 Y-0.80816
G01 X0.91518 Y-0.81029
G01 X0.92007 Y-0.81618
G01 X0.92270 Y-0.81793
G01 X0.92747 Y-0.81946
G01 X0.92819 Y-0.81875
G01 X0.92819 Y-0.80701
G01 X0.92704 Y-0.80589
G01 X0.92638 Y-0.80370
G01 X0.92638 Y-0.78402
G01 X0.92753 Y-0.78123
G01 X0.92955 Y-0.78015
G01 X0.93318 Y-0.78008
G01 X0.93712 Y-0.77913
G01 X0.94712 Y-0.77913
G01 X0.95093 Y-0.78000
G01 X0.96898 Y-0.78000
G01 X0.96943 Y-0.77956
G01 X0.96641 Y-0.77378
G01 X0.96418 Y-0.77154
G01 X0.95866 Y-0.76858
G01 X0.95675 Y-0.76824
G01 X0.95176 Y-0.77289
G01 X0.94713 Y-0.77420
G01 X0.94200 Y-0.77258
G01 X0.93969 Y-0.77023
G01 X0.93837 Y-0.76704
G01 X0.93830 Y-0.75912
G01 X0.93993 Y-0.75520
G01 X0.94366 Y-0.75224
G01 X0.94775 Y-0.75125
G01 X0.95335 Y-0.74826
G01 X0.95735 Y-0.74339
G01 X0.95856 Y-0.74047
G01 X0.95816 Y-0.73980
G01 X0.94011 Y-0.73980
G01 X0.93630 Y-0.74067
G01 X0.92630 Y-0.74067
G01 X0.92235 Y-0.73972
G01 X0.91872 Y-0.73965
G01 X0.91621 Y-0.73797
G01 X0.91555 Y-0.73579
G01 X0.91555 Y-0.71610
G01 X0.91621 Y-0.71391
G01 X0.91736 Y-0.71280
G01 X0.91736 Y-0.70105
G01 X0.91665 Y-0.70034
G01 X0.91188 Y-0.70187
G01 X0.90925 Y-0.70362
G01 X0.90435 Y-0.70952
G01 X0.90075 Y-0.71165
G01 X0.89806 Y-0.71210
G01 X0.87662 Y-0.71210
G01 X0.87398 Y-0.71281
G01 X0.87253 Y-0.71459
G01 X0.87218 Y-0.71654
G01 X0.87218 Y-0.73535
G04 P0 ( dwell for no time -- G64 should not smooth over this point )
G00 Z0.07874 ( retract )

G00 X0.94524 Y-0.71209 ( rapid move to begin. )
G01 F3.93701
G01 Z-0.00197
G04 P0 ( dwell for no time -- G64 should not smooth over this point )
G01 F7.87402
G01 X0.94524 Y-0.71209
G01 X0.95816 Y-0.71209
G01 X0.95860 Y-0.71164
G01 X0.95735 Y-0.70849
G01 X0.95335 Y-0.70362
G01 X0.95072 Y-0.70187
G01 X0.94595 Y-0.70034
G01 X0.94524 Y-0.70105
G01 X0.94524 Y-0.71209
G04 P0 ( dwell for no time -- G64 should not smooth over this point )
G00 Z0.07874 ( retract )

G00 X0.86454 Y-0.64122 ( rapid move to begin. )
G01 F3.93701
G01 Z-0.00197
G04 P0 ( dwell for no time -- G64 should not smooth over this point )
G01 F7.87402
G01 X0.86454 Y-0.64122
G01 X0.86454 Y-0.60469
G01 X0.86525 Y-0.60206
G01 X0.86703 Y-0.60060
G01 X0.86898 Y-0.60026
G01 X0.88582 Y-0.60026
G01 X0.88845 Y-0.60098
G01 X0.88990 Y-0.60275
G01 X0.89020 Y-0.60434
G01 X0.89020 Y-0.64145
G01 X0.88953 Y-0.64384
G01 X0.88617 Y-0.64559
G01 X0.86842 Y-0.64554
G01 X0.86562 Y-0.64410
G01 X0.86461 Y-0.64166
G01 X0.86525 Y-0.64385
G01 X0.86777 Y-0.64554
G01 X0.88582 Y-0.64566
G01 X0.88777 Y-0.64531
G01 X0.88955 Y-0.64385
G01 X0.89026 Y-0.64122
G01 X0.89026 Y-0.60469
G01 X0.88992 Y-0.60274
G01 X0.88846 Y-0.60097
G01 X0.88605 Y-0.60032
G01 X0.86863 Y-0.60032
G01 X0.86704 Y-0.60062
G01 X0.86527 Y-0.60207
G01 X0.86461 Y-0.60446
G01 X0.86454 Y-0.64122
G04 P0 ( dwell for no time -- G64 should not smooth over this point )
G00 Z0.07874 ( retract )

G00 X0.91573 Y-0.64122 ( rapid move to begin. )
G01 F3.93701
G01 Z-0.00197
G04 P0 ( dwell for no time -- G64 should not smooth over this point )
G01 F7.87402
G01 X0.91573 Y-0.64122
G01 X0.91573 Y-0.60469
G01 X0.91643 Y-0.60206
G01 X0.91821 Y-0.60060
G01 X0.91972 Y-0.60032
G01 X0.93744 Y-0.60032
G01 X0.93963 Y-0.60098
G01 X0.94108 Y-0.60275
G01 X0.94138 Y-0.60432
G01 X0.94138 Y-0.64166
G01 X0.94075 Y-0.64377
G01 X0.93929 Y-0.64503
G01 X0.93735 Y-0.64559
G01 X0.91960 Y-0.64554
G01 X0.91680 Y-0.64410
G01 X0.91579 Y-0.64145
G01 X0.91694 Y-0.64444
G01 X0.91972 Y-0.64559
G01 X0.93700 Y-0.64566
G01 X0.93895 Y-0.64531
G01 X0.94303 Y-0.64192
G01 X0.94652 Y-0.64073
G01 X0.97171 Y-0.64087
G01 X0.97644 Y-0.64332
G01 X0.98133 Y-0.64921
G01 X0.98396 Y-0.65097
G01 X0.98873 Y-0.65250
G01 X0.98945 Y-0.65178
G01 X0.98945 Y-0.64004
G01 X0.98830 Y-0.63892
G01 X0.98764 Y-0.63674
G01 X0.98764 Y-0.61705
G01 X0.98830 Y-0.61486
G01 X0.98945 Y-0.61374
G01 X0.98945 Y-0.60200
G01 X0.98873 Y-0.60129
G01 X0.98396 Y-0.60282
G01 X0.97906 Y-0.60684
G01 X0.97644 Y-0.61047
G01 X0.97283 Y-0.61260
G01 X0.97015 Y-0.61305
G01 X0.95036 Y-0.61305
G01 X0.94715 Y-0.61245
G01 X0.94348 Y-0.60980
G01 X0.94180 Y-0.60666
G01 X0.94110 Y-0.60274
G01 X0.93921 Y-0.60086
G01 X0.91822 Y-0.60062
G01 X0.91645 Y-0.60207
G01 X0.91579 Y-0.60446
G01 X0.91573 Y-0.64122
G04 P0 ( dwell for no time -- G64 should not smooth over this point )
G00 Z0.07874 ( retract )

G00 X0.94433 Y-0.63674 ( rapid move to begin. )
G01 F3.93701
G01 Z-0.00197
G04 P0 ( dwell for no time -- G64 should not smooth over this point )
G01 F7.87402
G01 X0.94433 Y-0.63674
G01 X0.94433 Y-0.61705
G01 X0.94499 Y-0.61486
G01 X0.94608 Y-0.61378
G01 X0.94827 Y-0.61311
G01 X0.97189 Y-0.61311
G01 X0.97340 Y-0.61341
G01 X0.97516 Y-0.61486
G01 X0.97583 Y-0.61705
G01 X0.97583 Y-0.63674
G01 X0.97553 Y-0.63824
G01 X0.97408 Y-0.64001
G01 X0.97189 Y-0.64067
G01 X0.94750 Y-0.64060
G01 X0.94548 Y-0.63952
G01 X0.94433 Y-0.63674
G04 P0 ( dwell for no time -- G64 should not smooth over this point )
G00 Z0.07874 ( retract )

G00 X1.01732 Y-0.65178 ( rapid move to begin. )
G01 F3.93701
G01 Z-0.00197
G04 P0 ( dwell for no time -- G64 should not smooth over this point )
G01 F7.87402
G01 X1.01732 Y-0.65178
G01 X1.01732 Y-0.64075
G01 X1.03025 Y-0.64075
G01 X1.03069 Y-0.64119
G01 X1.02943 Y-0.64434
G01 X1.02544 Y-0.64921
G01 X1.01992 Y-0.65217
G01 X1.01804 Y-0.65250
G01 X1.01732 Y-0.65178
G04 P0 ( dwell for no time -- G64 should not smooth over this point )
G00 Z0.07874 ( retract )

G00 X1.01732 Y-0.61303 ( rapid move to begin. )
G01 F3.93701
G01 Z-0.00197
G04 P0 ( dwell for no time -- G64 should not smooth over this point )
G01 F7.87402
G01 X1.01732 Y-0.61303
G01 X1.01732 Y-0.60200
G01 X1.01804 Y-0.60129
G01 X1.02280 Y-0.60282
G01 X1.02544 Y-0.60457
G01 X1.02943 Y-0.60944
G01 X1.03069 Y-0.61259
G01 X1.03025 Y-0.61303
G01 X1.01732 Y-0.61303
G04 P0 ( dwell for no time -- G64 should not smooth over this point )
G00 Z0.07874 ( retract )

G00 X1.01732 Y-0.55730 ( rapid move to begin. )
G01 F3.93701
G01 Z-0.00197
G04 P0 ( dwell for no time -- G64 should not smooth over this point )
G01 F7.87402
G01 X1.01732 Y-0.55730
G01 X1.01732 Y-0.54626
G01 X1.03025 Y-0.54626
G01 X1.03069 Y-0.54671
G01 X1.02943 Y-0.54986
G01 X1.02544 Y-0.55473
G01 X1.01992 Y-0.55768
G01 X1.01804 Y-0.55801
G01 X1.01732 Y-0.55730
G04 P0 ( dwell for no time -- G64 should not smooth over this point )
G00 Z0.07874 ( retract )

G00 X1.01732 Y-0.51855 ( rapid move to begin. )
G01 F3.93701
G01 Z-0.00197
G04 P0 ( dwell for no time -- G64 should not smooth over this point )
G01 F7.87402
G01 X1.01732 Y-0.51855
G01 X1.01732 Y-0.50751
G01 X1.01804 Y-0.50680
G01 X1.02280 Y-0.50833
G01 X1.02544 Y-0.51009
G01 X1.02943 Y-0.51495
G01 X1.03069 Y-0.51810
G01 X1.03025 Y-0.51855
G01 X1.01732 Y-0.51855
G04 P0 ( dwell for no time -- G64 should not smooth over this point )
G00 Z0.07874 ( retract )

G00 X0.94433 Y-0.54225 ( rapid move to begin. )
G01 F3.93701
G01 Z-0.00197
G04 P0 ( dwell for no time -- G64 should not smooth over this point )
G01 F7.87402
G01 X0.94433 Y-0.54225
G01 X0.94433 Y-0.52256
G01 X0.94499 Y-0.52038
G01 X0.94608 Y-0.51929
G01 X0.94827 Y-0.51863
G01 X0.97189 Y-0.51863
G01 X0.97408 Y-0.51929
G01 X0.97516 Y-0.52038
G01 X0.97583 Y-0.52256
G01 X0.97583 Y-0.54225
G01 X0.97553 Y-0.54375
G01 X0.97408 Y-0.54552
G01 X0.97189 Y-0.54619
G01 X0.94750 Y-0.54611
G01 X0.94548 Y-0.54503
G01 X0.94433 Y-0.54225
G04 P0 ( dwell for no time -- G64 should not smooth over this point )
G00 Z0.07874 ( retract )

G00 X0.91575 Y-0.55473 ( rapid move to begin. )
G01 F3.93701
G01 Z-0.00197
G04 P0 ( dwell for no time -- G64 should not smooth over this point )
G01 F7.87402
G01 X0.91575 Y-0.55473
G01 X0.91575 Y-0.51796
G01 X0.91669 Y-0.50226
G01 X0.92209 Y-0.50516
G01 X0.92699 Y-0.51106
G01 X0.92917 Y-0.51260
G01 X0.93251 Y-0.51357
G01 X0.93895 Y-0.51399
G01 X0.94108 Y-0.51614
G01 X0.94138 Y-0.55498
G01 X0.93963 Y-0.55832
G01 X0.93508 Y-0.55898
G01 X0.93964 Y-0.55833
G01 X0.94110 Y-0.55656
G01 X0.94180 Y-0.55264
G01 X0.94325 Y-0.54977
G01 X0.94568 Y-0.54758
G01 X0.94873 Y-0.54640
G01 X0.97227 Y-0.54651
G01 X0.97644 Y-0.54883
G01 X0.98133 Y-0.55473
G01 X0.98396 Y-0.55648
G01 X0.98873 Y-0.55801
G01 X0.98945 Y-0.55730
G01 X0.98945 Y-0.54555
G01 X0.98830 Y-0.54444
G01 X0.98764 Y-0.54225
G01 X0.98764 Y-0.52256
G01 X0.98830 Y-0.52038
G01 X0.98945 Y-0.51926
G01 X0.98945 Y-0.50752
G01 X0.98873 Y-0.50680
G01 X0.98396 Y-0.50833
G01 X0.97906 Y-0.51236
G01 X0.97618 Y-0.51621
G01 X0.97191 Y-0.51839
G01 X0.94652 Y-0.51857
G01 X0.94303 Y-0.51738
G01 X0.93821 Y-0.51394
G01 X0.91822 Y-0.51400
G01 X0.91645 Y-0.51545
G01 X0.91579 Y-0.51771
G01 X0.91579 Y-0.55497
G01 X0.91694 Y-0.55783
G01 X0.91972 Y-0.55898
G01 X0.93508 Y-0.55898
G01 X0.92985 Y-0.55972
G01 X0.92699 Y-0.56163
G01 X0.92209 Y-0.56752
G01 X0.91669 Y-0.57042
G01 X0.91575 Y-0.55473
G04 P0 ( dwell for no time -- G64 should not smooth over this point )
G00 Z0.07874 ( retract )

G00 X0.80638 Y-0.63228 ( rapid move to begin. )
G01 F3.93701
G01 Z-0.00197
G04 P0 ( dwell for no time -- G64 should not smooth over this point )
G01 F7.87402
G01 X0.80638 Y-0.63228
G01 X0.81741 Y-0.63228
G01 X0.81813 Y-0.63157
G01 X0.81660 Y-0.62680
G01 X0.81484 Y-0.62417
G01 X0.80997 Y-0.62017
G01 X0.80682 Y-0.61892
G01 X0.80638 Y-0.61936
G01 X0.80638 Y-0.63228
G04 P0 ( dwell for no time -- G64 should not smooth over this point )
G00 Z0.07874 ( retract )

G00 X0.76691 Y-0.66087 ( rapid move to begin. )
G01 F3.93701
G01 Z-0.00197
G04 P0 ( dwell for no time -- G64 should not smooth over this point )
G01 F7.87402
G01 X0.76691 Y-0.66087
G01 X0.76763 Y-0.66016
G01 X0.77937 Y-0.66016
G01 X0.78049 Y-0.66131
G01 X0.78268 Y-0.66197
G01 X0.80236 Y-0.66197
G01 X0.80455 Y-0.66131
G01 X0.80567 Y-0.66016
G01 X0.81741 Y-0.66016
G01 X0.81813 Y-0.66087
G01 X0.81660 Y-0.66564
G01 X0.81484 Y-0.66827
G01 X0.80895 Y-0.67317
G01 X0.80682 Y-0.67677
G01 X0.80636 Y-0.67946
G01 X0.80636 Y-0.70090
G01 X0.80516 Y-0.70414
G01 X0.80192 Y-0.70534
G01 X0.78191 Y-0.70520
G01 X0.77989 Y-0.70412
G01 X0.77874 Y-0.70106
G01 X0.77874 Y-0.67772
G01 X0.77989 Y-0.67493
G01 X0.78268 Y-0.67378
G01 X0.80236 Y-0.67378
G01 X0.80515 Y-0.67493
G01 X0.80630 Y-0.67772
G01 X0.80630 Y-0.70107
G01 X0.80515 Y-0.70412
G01 X0.80209 Y-0.70527
G01 X0.78275 Y-0.70520
G01 X0.77988 Y-0.70414
G01 X0.77874 Y-0.70134
G01 X0.77841 Y-0.67734
G01 X0.77609 Y-0.67317
G01 X0.77020 Y-0.66827
G01 X0.76844 Y-0.66564
G01 X0.76691 Y-0.66087
G04 P0 ( dwell for no time -- G64 should not smooth over this point )
G00 Z0.07874 ( retract )

G00 X0.76691 Y-0.63157 ( rapid move to begin. )
G01 F3.93701
G01 Z-0.00197
G04 P0 ( dwell for no time -- G64 should not smooth over this point )
G01 F7.87402
G01 X0.76691 Y-0.63157
G01 X0.76763 Y-0.63228
G01 X0.77866 Y-0.63228
G01 X0.77866 Y-0.61936
G01 X0.77822 Y-0.61892
G01 X0.77507 Y-0.62017
G01 X0.77020 Y-0.62417
G01 X0.76844 Y-0.62680
G01 X0.76691 Y-0.63157
G04 P0 ( dwell for no time -- G64 should not smooth over this point )
G00 Z0.07874 ( retract )

G00 X0.86454 Y-0.55460 ( rapid move to begin. )
G01 F3.93701
G01 Z-0.00197
G04 P0 ( dwell for no time -- G64 should not smooth over this point )
G01 F7.87402
G01 X0.86454 Y-0.55460
G01 X0.86461 Y-0.54767
G01 X0.86463 Y-0.55511
G01 X0.86602 Y-0.55793
G01 X0.86848 Y-0.55895
G01 X0.88626 Y-0.55898
G01 X0.88845 Y-0.55832
G01 X0.88953 Y-0.55723
G01 X0.89020 Y-0.55495
G01 X0.89020 Y-0.51773
G01 X0.88957 Y-0.51553
G01 X0.88845 Y-0.51437
G01 X0.88626 Y-0.51370
G01 X0.86854 Y-0.51370
G01 X0.86704 Y-0.51400
G01 X0.86527 Y-0.51545
G01 X0.86461 Y-0.51764
G01 X0.86461 Y-0.54767
G01 X0.86521 Y-0.51564
G01 X0.86748 Y-0.51392
G01 X0.87348 Y-0.51357
G01 X0.87681 Y-0.51260
G01 X0.87900 Y-0.51106
G01 X0.88389 Y-0.50516
G01 X0.88929 Y-0.50226
G01 X0.89023 Y-0.51796
G01 X0.89023 Y-0.55473
G01 X0.88962 Y-0.55883
G01 X0.88962 Y-0.57009
G01 X0.88929 Y-0.57042
G01 X0.88653 Y-0.56928
G01 X0.88389 Y-0.56752
G01 X0.87965 Y-0.56242
G01 X0.87699 Y-0.56018
G01 X0.87449 Y-0.55922
G01 X0.86777 Y-0.55892
G01 X0.86635 Y-0.55833
G01 X0.86489 Y-0.55656
G01 X0.86454 Y-0.55460
G04 P0 ( dwell for no time -- G64 should not smooth over this point )
G00 Z0.07874 ( retract )

G00 X1.40394 Y-0.06402 ( rapid move to begin. )
G01 F3.93701
G01 Z-0.00197
G04 P0 ( dwell for no time -- G64 should not smooth over this point )
G01 F7.87402
G01 X1.40394 Y-0.06402
G01 X1.43014 Y-0.06409
G01 X1.43215 Y-0.06517
G01 X1.43301 Y-0.06645
G01 X1.43331 Y-0.07173
G01 X1.44442 Y-0.07173
G01 X1.44543 Y-0.07072
G01 X1.44481 Y-0.06327
G01 X1.44185 Y-0.05771
G01 X1.43698 Y-0.05372
G01 X1.43095 Y-0.05189
G01 X1.40495 Y-0.05189
G01 X1.40394 Y-0.05290
G01 X1.40394 Y-0.06402
G04 P0 ( dwell for no time -- G64 should not smooth over this point )
G00 Z0.07874 ( retract )

G00 X1.58285 Y-0.47893 ( rapid move to begin. )
G01 F3.93701
G01 Z-0.00197
G04 P0 ( dwell for no time -- G64 should not smooth over this point )
G01 F7.87402
G01 X1.58285 Y-0.47893
G01 X1.58285 Y-0.28296
G01 X1.58405 Y-0.27972
G01 X1.58729 Y-0.27852
G01 X1.78326 Y-0.27852
G01 X1.78648 Y-0.27974
G01 X1.78764 Y-0.28279
G01 X1.78764 Y-0.47910
G01 X1.78648 Y-0.48215
G01 X1.78343 Y-0.48331
G01 X1.58712 Y-0.48331
G01 X1.58405 Y-0.48217
G01 X1.58291 Y-0.47937
G01 X1.58407 Y-0.48215
G01 X1.58729 Y-0.48337
G01 X1.78326 Y-0.48337
G01 X1.78650 Y-0.48217
G01 X1.78770 Y-0.47893
G01 X1.78770 Y-0.28296
G01 X1.78650 Y-0.27972
G01 X1.78343 Y-0.27858
G01 X1.58712 Y-0.27858
G01 X1.58407 Y-0.27974
G01 X1.58291 Y-0.28279
G01 X1.58285 Y-0.47893
G04 P0 ( dwell for no time -- G64 should not smooth over this point )
G00 Z0.07874 ( retract )

G00 X1.46587 Y-0.76009 ( rapid move to begin. )
G01 F3.93701
G01 Z-0.00197
G04 P0 ( dwell for no time -- G64 should not smooth over this point )
G01 F7.87402
G01 X1.46587 Y-0.76009
G01 X1.46587 Y-0.73409
G01 X1.46769 Y-0.72806
G01 X1.47169 Y-0.72319
G01 X1.47432 Y-0.72143
G01 X1.48035 Y-0.71961
G01 X1.48469 Y-0.71961
G01 X1.48571 Y-0.72062
G01 X1.48571 Y-0.73173
G01 X1.48042 Y-0.73203
G01 X1.47866 Y-0.73348
G01 X1.47807 Y-0.73490
G01 X1.47799 Y-0.76110
G01 X1.46688 Y-0.76110
G01 X1.46587 Y-0.76009
G04 P0 ( dwell for no time -- G64 should not smooth over this point )
G00 Z0.07874 ( retract )

G00 X1.44663 Y-0.98129 ( rapid move to begin. )
G01 F3.93701
G01 Z-0.00197
G04 P0 ( dwell for no time -- G64 should not smooth over this point )
G01 F7.87402
G01 X1.44663 Y-0.98129
G01 X1.44783 Y-0.98453
G01 X1.45107 Y-0.98573
G01 X1.49429 Y-0.98573
G01 X1.49692 Y-0.98502
G01 X1.49838 Y-0.98325
G01 X1.49866 Y-0.89669
G01 X1.49800 Y-0.89450
G01 X1.49691 Y-0.89342
G01 X1.49472 Y-0.89275
G01 X1.45084 Y-0.89275
G01 X1.44843 Y-0.89340
G01 X1.44725 Y-0.89484
G01 X1.44669 Y-0.96582
G01 X1.44669 Y-0.89669
G01 X1.44697 Y-0.89518
G01 X1.44844 Y-0.89342
G01 X1.45107 Y-0.89269
G01 X1.47710 Y-0.89252
G01 X1.48031 Y-0.89119
G01 X1.48229 Y-0.88932
G01 X1.48417 Y-0.88512
G01 X1.48421 Y-0.88299
G01 X1.48298 Y-0.87912
G01 X1.48037 Y-0.87551
G01 X1.47819 Y-0.87398
G01 X1.47409 Y-0.87294
G01 X1.46357 Y-0.87294
G01 X1.46025 Y-0.87231
G01 X1.45593 Y-0.86949
G01 X1.45382 Y-0.86554
G01 X1.45338 Y-0.86313
G01 X1.45332 Y-0.84999
G01 X1.45355 Y-0.84764
G01 X1.45521 Y-0.84396
G01 X1.45352 Y-0.84803
G01 X1.45355 Y-0.86503
G01 X1.45623 Y-0.87003
G01 X1.45939 Y-0.87215
G01 X1.47513 Y-0.87286
G01 X1.48024 Y-0.87118
G01 X1.48314 Y-0.86805
G01 X1.48445 Y-0.86371
G01 X1.48438 Y-0.84836
G01 X1.48304 Y-0.84447
G01 X1.48008 Y-0.84139
G01 X1.47532 Y-0.83984
G01 X1.46322 Y-0.83982
G01 X1.45859 Y-0.84119
G01 X1.45521 Y-0.84396
G01 X1.45939 Y-0.84053
G01 X1.46526 Y-0.83945
G01 X1.46768 Y-0.83841
G01 X1.47032 Y-0.83590
G01 X1.47174 Y-0.83255
G01 X1.47143 Y-0.82793
G01 X1.46768 Y-0.82197
G01 X1.46587 Y-0.81599
G01 X1.46587 Y-0.78999
G01 X1.46688 Y-0.78898
G01 X1.47799 Y-0.78898
G01 X1.47799 Y-0.81441
G01 X1.47866 Y-0.81660
G01 X1.48042 Y-0.81805
G01 X1.51736 Y-0.81835
G01 X1.52015 Y-0.81719
G01 X1.52122 Y-0.81518
G01 X1.52130 Y-0.73567
G01 X1.52063 Y-0.73348
G01 X1.51887 Y-0.73203
G01 X1.51358 Y-0.73173
G01 X1.51358 Y-0.72062
G01 X1.51460 Y-0.71961
G01 X1.51894 Y-0.71961
G01 X1.52497 Y-0.72143
G01 X1.52987 Y-0.72546
G01 X1.53250 Y-0.72908
G01 X1.53667 Y-0.73140
G01 X1.56692 Y-0.73167
G01 X1.56887 Y-0.73203
G01 X1.57064 Y-0.73348
G01 X1.57130 Y-0.73567
G01 X1.57100 Y-0.81592
G01 X1.56950 Y-0.81747
G01 X1.56709 Y-0.81835
G01 X1.57209 Y-0.81652
G01 X1.57552 Y-0.81619
G01 X1.58159 Y-0.81860
G01 X1.58471 Y-0.82136
G01 X1.58630 Y-0.82573
G01 X1.58556 Y-0.83012
G01 X1.58103 Y-0.83637
G01 X1.57837 Y-0.83860
G01 X1.57510 Y-0.83964
G01 X1.56237 Y-0.83994
G01 X1.55953 Y-0.84088
G01 X1.55595 Y-0.84317
G01 X1.55352 Y-0.84803
G01 X1.55339 Y-0.86313
G01 X1.55387 Y-0.86580
G01 X1.55355 Y-0.84764
G01 X1.55623 Y-0.84264
G01 X1.56123 Y-0.83997
G01 X1.57532 Y-0.83984
G01 X1.58008 Y-0.84139
G01 X1.58304 Y-0.84447
G01 X1.58438 Y-0.84836
G01 X1.58445 Y-0.86371
G01 X1.58314 Y-0.86805
G01 X1.58024 Y-0.87118
G01 X1.57513 Y-0.87286
G01 X1.56025 Y-0.87231
G01 X1.55507 Y-0.86860
G01 X1.55387 Y-0.86580
G01 X1.55501 Y-0.86855
G01 X1.55939 Y-0.87215
G01 X1.56357 Y-0.87294
G01 X1.57409 Y-0.87294
G01 X1.57819 Y-0.87398
G01 X1.58037 Y-0.87551
G01 X1.58298 Y-0.87912
G01 X1.58421 Y-0.88299
G01 X1.58417 Y-0.88512
G01 X1.58229 Y-0.88932
G01 X1.58031 Y-0.89119
G01 X1.57710 Y-0.89252
G01 X1.55107 Y-0.89269
G01 X1.54843 Y-0.89340
G01 X1.54726 Y-0.89484
G01 X1.54669 Y-0.89669
G01 X1.54669 Y-0.98173
G01 X1.54744 Y-0.98354
G01 X1.54675 Y-0.98187
G01 X1.54736 Y-0.89450
G01 X1.54844 Y-0.89342
G01 X1.55063 Y-0.89275
G01 X1.59472 Y-0.89275
G01 X1.59691 Y-0.89342
G01 X1.59800 Y-0.89450
G01 X1.59866 Y-0.89669
G01 X1.59866 Y-0.98164
G01 X1.59810 Y-0.98359
G01 X1.59652 Y-0.98513
G01 X1.59452 Y-0.98567
G01 X1.55083 Y-0.98567
G01 X1.54819 Y-0.98466
G01 X1.54744 Y-0.98354
G01 X1.54843 Y-0.98502
G01 X1.55107 Y-0.98573
G01 X1.59429 Y-0.98573
G01 X1.59623 Y-0.98537
G01 X1.59800 Y-0.98392
G01 X1.59872 Y-0.98129
G01 X1.59877 Y-0.89146
G01 X1.60049 Y-0.88821
G01 X1.60337 Y-0.88595
G01 X1.60518 Y-0.88213
G01 X1.60716 Y-0.88026
G01 X1.61038 Y-0.87892
G01 X1.61387 Y-0.87892
G01 X1.61641 Y-0.87989
G01 X1.62173 Y-0.88469
G01 X1.62635 Y-0.88317
G01 X1.63122 Y-0.87918
G01 X1.63297 Y-0.87655
G01 X1.63468 Y-0.87116
G01 X1.63379 Y-0.87028
G01 X1.61954 Y-0.87028
G01 X1.61630 Y-0.87225
G01 X1.61351 Y-0.87285
G01 X1.60074 Y-0.87283
G01 X1.59639 Y-0.87152
G01 X1.59322 Y-0.86854
G01 X1.59168 Y-0.86447
G01 X1.59157 Y-0.84955
G01 X1.59256 Y-0.84530
G01 X1.59590 Y-0.84144
G01 X1.59849 Y-0.84022
G01 X1.60132 Y-0.83980
G01 X1.61445 Y-0.83993
G01 X1.61701 Y-0.84071
G01 X1.61954 Y-0.84240
G01 X1.63379 Y-0.84240
G01 X1.63468 Y-0.84151
G01 X1.63418 Y-0.83905
G01 X1.63299 Y-0.83618
G01 X1.62991 Y-0.83163
G01 X1.62878 Y-0.82773
G01 X1.62961 Y-0.82358
G01 X1.63258 Y-0.82003
G01 X1.63770 Y-0.81841
G01 X1.66692 Y-0.81841
G01 X1.66982 Y-0.81746
G01 X1.67100 Y-0.81592
G01 X1.67130 Y-0.73567
G01 X1.67064 Y-0.73348
G01 X1.66789 Y-0.73202
G01 X1.63219 Y-0.73174
G01 X1.62979 Y-0.73261
G01 X1.63237 Y-0.73167
G01 X1.66692 Y-0.73167
G01 X1.67209 Y-0.73356
G01 X1.67475 Y-0.73389
G01 X1.68097 Y-0.73208
G01 X1.67948 Y-0.73261
G01 X1.67829 Y-0.73416
G01 X1.67799 Y-0.81441
G01 X1.67915 Y-0.81719
G01 X1.68193 Y-0.81835
G01 X1.71736 Y-0.81835
G01 X1.71955 Y-0.81768
G01 X1.72100 Y-0.81592
G01 X1.72130 Y-0.73567
G01 X1.72063 Y-0.73348
G01 X1.71789 Y-0.73202
G01 X1.68097 Y-0.73208
G01 X1.71692 Y-0.73167
G01 X1.72209 Y-0.73356
G01 X1.72475 Y-0.73389
G01 X1.73097 Y-0.73208
G01 X1.72948 Y-0.73261
G01 X1.72829 Y-0.73416
G01 X1.72799 Y-0.81441
G01 X1.72914 Y-0.81719
G01 X1.73193 Y-0.81835
G01 X1.76736 Y-0.81835
G01 X1.76955 Y-0.81768
G01 X1.77100 Y-0.81592
G01 X1.77130 Y-0.73567
G01 X1.77063 Y-0.73348
G01 X1.76789 Y-0.73202
G01 X1.73097 Y-0.73208
G01 X1.76692 Y-0.73167
G01 X1.77209 Y-0.73356
G01 X1.77475 Y-0.73389
G01 X1.78097 Y-0.73208
G01 X1.77947 Y-0.73261
G01 X1.77829 Y-0.73416
G01 X1.77799 Y-0.81441
G01 X1.77914 Y-0.81719
G01 X1.78193 Y-0.81835
G01 X1.81736 Y-0.81835
G01 X1.81955 Y-0.81768
G01 X1.82100 Y-0.81592
G01 X1.82130 Y-0.73567
G01 X1.82064 Y-0.73348
G01 X1.81789 Y-0.73202
G01 X1.78097 Y-0.73208
G01 X1.81692 Y-0.73167
G01 X1.82209 Y-0.73356
G01 X1.82475 Y-0.73389
G01 X1.83237 Y-0.73167
G01 X1.86692 Y-0.73167
G01 X1.86887 Y-0.73203
G01 X1.87064 Y-0.73348
G01 X1.87130 Y-0.73567
G01 X1.87100 Y-0.81592
G01 X1.86933 Y-0.81765
G01 X1.86712 Y-0.81835
G01 X1.87396 Y-0.81618
G01 X1.87778 Y-0.81674
G01 X1.88234 Y-0.81895
G01 X1.88452 Y-0.82081
G01 X1.88645 Y-0.82481
G01 X1.88657 Y-0.82766
G01 X1.88586 Y-0.83021
G01 X1.88051 Y-0.83741
G01 X1.87837 Y-0.83899
G01 X1.87510 Y-0.84004
G01 X1.86237 Y-0.84034
G01 X1.85953 Y-0.84127
G01 X1.85595 Y-0.84356
G01 X1.85352 Y-0.84842
G01 X1.85339 Y-0.86352
G01 X1.85382 Y-0.86593
G01 X1.85355 Y-0.84803
G01 X1.85623 Y-0.84304
G01 X1.85764 Y-0.84189
G01 X1.86274 Y-0.84022
G01 X1.87532 Y-0.84024
G01 X1.88008 Y-0.84179
G01 X1.88304 Y-0.84486
G01 X1.88438 Y-0.84875
G01 X1.88444 Y-0.86410
G01 X1.88314 Y-0.86845
G01 X1.88024 Y-0.87157
G01 X1.87513 Y-0.87325
G01 X1.86025 Y-0.87270
G01 X1.85593 Y-0.86988
G01 X1.85382 Y-0.86593
G01 X1.85623 Y-0.87043
G01 X1.85939 Y-0.87254
G01 X1.86357 Y-0.87333
G01 X1.87409 Y-0.87333
G01 X1.87819 Y-0.87437
G01 X1.88067 Y-0.87623
G01 X1.88305 Y-0.87977
G01 X1.88394 Y-0.88452
G01 X1.88341 Y-0.88700
G01 X1.88202 Y-0.88932
G01 X1.88005 Y-0.89119
G01 X1.87683 Y-0.89252
G01 X1.85108 Y-0.89269
G01 X1.84843 Y-0.89340
G01 X1.84726 Y-0.89484
G01 X1.84669 Y-0.89669
G01 X1.84675 Y-0.98250
G01 X1.84843 Y-0.98502
G01 X1.85107 Y-0.98573
G01 X1.89472 Y-0.98567
G01 X1.89623 Y-0.98537
G01 X1.89800 Y-0.98392
G01 X1.89866 Y-0.98173
G01 X1.89852 Y-0.89622
G01 X1.89872 Y-0.98129
G01 X1.89801 Y-0.98393
G01 X1.89624 Y-0.98539
G01 X1.85084 Y-0.98567
G01 X1.84819 Y-0.98466
G01 X1.84744 Y-0.98354
G01 X1.84675 Y-0.98188
G01 X1.84697 Y-0.89518
G01 X1.84844 Y-0.89342
G01 X1.85063 Y-0.89275
G01 X1.89472 Y-0.89275
G01 X1.89691 Y-0.89342
G01 X1.89800 Y-0.89450
G01 X1.89852 Y-0.89622
G01 X1.89909 Y-0.89114
G01 X1.90055 Y-0.88865
G01 X1.90336 Y-0.88639
G01 X1.90518 Y-0.88252
G01 X1.90716 Y-0.88065
G01 X1.91038 Y-0.87931
G01 X1.91387 Y-0.87931
G01 X1.91641 Y-0.88029
G01 X1.92173 Y-0.88509
G01 X1.92635 Y-0.88357
G01 X1.93122 Y-0.87957
G01 X1.93298 Y-0.87694
G01 X1.93467 Y-0.87156
G01 X1.93379 Y-0.87067
G01 X1.91954 Y-0.87067
G01 X1.91630 Y-0.87264
G01 X1.91351 Y-0.87324
G01 X1.90074 Y-0.87323
G01 X1.89639 Y-0.87192
G01 X1.89322 Y-0.86894
G01 X1.89168 Y-0.86486
G01 X1.89199 Y-0.84711
G01 X1.89316 Y-0.84461
G01 X1.89559 Y-0.84207
G01 X1.90074 Y-0.84024
G01 X1.91445 Y-0.84033
G01 X1.91701 Y-0.84110
G01 X1.91954 Y-0.84279
G01 X1.93379 Y-0.84279
G01 X1.93467 Y-0.84191
G01 X1.93419 Y-0.83945
G01 X1.93298 Y-0.83652
G01 X1.92951 Y-0.83163
G01 X1.92839 Y-0.82773
G01 X1.92921 Y-0.82358
G01 X1.93218 Y-0.82003
G01 X1.93731 Y-0.81841
G01 X1.96692 Y-0.81841
G01 X1.96888 Y-0.81806
G01 X1.97065 Y-0.81661
G01 X1.97117 Y-0.76990
G01 X1.97073 Y-0.73381
G01 X1.96825 Y-0.73203
G01 X1.93097 Y-0.73208
G01 X1.96692 Y-0.73167
G01 X1.96956 Y-0.73238
G01 X1.97102 Y-0.73416
G01 X1.97136 Y-0.81397
G01 X1.96998 Y-0.81716
G01 X1.96727 Y-0.81835
G01 X1.93193 Y-0.81835
G01 X1.92915 Y-0.81719
G01 X1.92799 Y-0.81441
G01 X1.92829 Y-0.73416
G01 X1.92948 Y-0.73261
G01 X1.93097 Y-0.73208
G01 X1.92475 Y-0.73389
G01 X1.92209 Y-0.73356
G01 X1.91692 Y-0.73167
G01 X1.88237 Y-0.73167
G01 X1.88026 Y-0.73212
G01 X1.87829 Y-0.73416
G01 X1.87799 Y-0.81441
G01 X1.87882 Y-0.81680
G01 X1.88193 Y-0.81835
G01 X1.91736 Y-0.81835
G01 X1.91955 Y-0.81768
G01 X1.92100 Y-0.81592
G01 X1.92130 Y-0.73567
G01 X1.92064 Y-0.73348
G01 X1.91789 Y-0.73202
G01 X1.88219 Y-0.73174
G01 X1.87720 Y-0.73356
G01 X1.87377 Y-0.73389
G01 X1.86802 Y-0.73203
G01 X1.83215 Y-0.73173
G01 X1.82947 Y-0.73261
G01 X1.82829 Y-0.73416
G01 X1.82799 Y-0.81441
G01 X1.82915 Y-0.81719
G01 X1.83193 Y-0.81835
G01 X1.86712 Y-0.81835
G01 X1.83613 Y-0.81841
G01 X1.83289 Y-0.81902
G01 X1.82881 Y-0.82222
G01 X1.82719 Y-0.82715
G01 X1.82833 Y-0.83163
G01 X1.83179 Y-0.83652
G01 X1.83300 Y-0.83945
G01 X1.83349 Y-0.84191
G01 X1.83261 Y-0.84279
G01 X1.81835 Y-0.84279
G01 X1.81583 Y-0.84110
G01 X1.81327 Y-0.84033
G01 X1.79956 Y-0.84024
G01 X1.79472 Y-0.84184
G01 X1.79261 Y-0.84376
G01 X1.79117 Y-0.84612
G01 X1.79039 Y-0.84995
G01 X1.79050 Y-0.86486
G01 X1.79204 Y-0.86894
G01 X1.79521 Y-0.87192
G01 X1.79956 Y-0.87323
G01 X1.81233 Y-0.87324
G01 X1.81512 Y-0.87264
G01 X1.81835 Y-0.87067
G01 X1.83261 Y-0.87067
G01 X1.83349 Y-0.87156
G01 X1.83179 Y-0.87694
G01 X1.83004 Y-0.87957
G01 X1.82517 Y-0.88357
G01 X1.82055 Y-0.88509
G01 X1.81523 Y-0.88029
G01 X1.81269 Y-0.87931
G01 X1.80846 Y-0.87954
G01 X1.80598 Y-0.88065
G01 X1.80351 Y-0.88311
G01 X1.80210 Y-0.88717
G01 X1.79993 Y-0.88949
G01 X1.79883 Y-0.89192
G01 X1.79872 Y-0.98129
G01 X1.79800 Y-0.98392
G01 X1.79623 Y-0.98537
G01 X1.75083 Y-0.98567
G01 X1.74811 Y-0.98462
G01 X1.74697 Y-0.98325
G01 X1.74669 Y-0.89669
G01 X1.74697 Y-0.89576
G01 X1.74697 Y-0.98242
G01 X1.74785 Y-0.98452
G01 X1.75107 Y-0.98573
G01 X1.79624 Y-0.98539
G01 X1.79801 Y-0.98393
G01 X1.79866 Y-0.98173
G01 X1.79866 Y-0.89669
G01 X1.79800 Y-0.89450
G01 X1.79691 Y-0.89342
G01 X1.79472 Y-0.89275
G01 X1.75084 Y-0.89275
G01 X1.74843 Y-0.89340
G01 X1.74697 Y-0.89576
G01 X1.74844 Y-0.89342
G01 X1.75107 Y-0.89269
G01 X1.77638 Y-0.89230
G01 X1.77887 Y-0.89119
G01 X1.78122 Y-0.88888
G01 X1.78284 Y-0.88376
G01 X1.78218 Y-0.88040
G01 X1.78041 Y-0.87742
G01 X1.77633 Y-0.87401
G01 X1.77291 Y-0.87333
G01 X1.76004 Y-0.87310
G01 X1.75652 Y-0.87164
G01 X1.75293 Y-0.86726
G01 X1.75220 Y-0.86266
G01 X1.75249 Y-0.84767
G01 X1.75442 Y-0.84376
G01 X1.75687 Y-0.84164
G01 X1.76156 Y-0.84022
G01 X1.77414 Y-0.84024
G01 X1.77889 Y-0.84179
G01 X1.78186 Y-0.84486
G01 X1.78320 Y-0.84875
G01 X1.78326 Y-0.86410
G01 X1.78196 Y-0.86845
G01 X1.77865 Y-0.87182
G01 X1.77356 Y-0.87327
G01 X1.76113 Y-0.87312
G01 X1.75735 Y-0.87199
G01 X1.75636 Y-0.87144
G01 X1.75285 Y-0.86663
G01 X1.75194 Y-0.85947
G01 X1.75064 Y-0.85637
G01 X1.74697 Y-0.85325
G01 X1.74315 Y-0.85240
G01 X1.73404 Y-0.85295
G01 X1.73078 Y-0.85502
G01 X1.72884 Y-0.85792
G01 X1.72816 Y-0.86134
G01 X1.72884 Y-0.86476
G01 X1.73078 Y-0.86766
G01 X1.73428 Y-0.87116
G01 X1.73258 Y-0.87655
G01 X1.72859 Y-0.88141
G01 X1.72595 Y-0.88317
G01 X1.72134 Y-0.88469
G01 X1.71602 Y-0.87989
G01 X1.71271 Y-0.87885
G01 X1.70868 Y-0.87930
G01 X1.70541 Y-0.88137
G01 X1.70355 Y-0.88409
G01 X1.70293 Y-0.88619
G01 X1.70049 Y-0.88821
G01 X1.69903 Y-0.89068
G01 X1.69842 Y-0.89431
G01 X1.69866 Y-0.98152
G01 X1.69800 Y-0.98392
G01 X1.69623 Y-0.98537
G01 X1.69464 Y-0.98567
G01 X1.65071 Y-0.98567
G01 X1.64774 Y-0.98426
G01 X1.64685 Y-0.98212
G01 X1.64785 Y-0.98452
G01 X1.65107 Y-0.98573
G01 X1.69429 Y-0.98573
G01 X1.69624 Y-0.98539
G01 X1.69801 Y-0.98393
G01 X1.69866 Y-0.98173
G01 X1.69866 Y-0.89669
G01 X1.69800 Y-0.89450
G01 X1.69691 Y-0.89342
G01 X1.69472 Y-0.89275
G01 X1.65084 Y-0.89275
G01 X1.64843 Y-0.89340
G01 X1.64725 Y-0.89484
G01 X1.64663 Y-0.98129
G01 X1.64685 Y-0.98212
G01 X1.64698 Y-0.89518
G01 X1.64844 Y-0.89342
G01 X1.65108 Y-0.89269
G01 X1.67670 Y-0.89252
G01 X1.67992 Y-0.89119
G01 X1.68189 Y-0.88932
G01 X1.68377 Y-0.88512
G01 X1.68381 Y-0.88299
G01 X1.68258 Y-0.87912
G01 X1.67997 Y-0.87551
G01 X1.67779 Y-0.87398
G01 X1.67369 Y-0.87294
G01 X1.66317 Y-0.87294
G01 X1.65985 Y-0.87231
G01 X1.65554 Y-0.86949
G01 X1.65316 Y-0.86503
G01 X1.65299 Y-0.86313
G01 X1.65316 Y-0.84794
G01 X1.65316 Y-0.86406
G01 X1.65360 Y-0.86650
G01 X1.65583 Y-0.87003
G01 X1.66046 Y-0.87259
G01 X1.67474 Y-0.87286
G01 X1.67984 Y-0.87118
G01 X1.68274 Y-0.86805
G01 X1.68405 Y-0.86371
G01 X1.68398 Y-0.84836
G01 X1.68265 Y-0.84447
G01 X1.67968 Y-0.84139
G01 X1.67493 Y-0.83984
G01 X1.66198 Y-0.83994
G01 X1.65638 Y-0.84235
G01 X1.65316 Y-0.84764
G01 X1.65583 Y-0.84264
G01 X1.66083 Y-0.83997
G01 X1.67470 Y-0.83964
G01 X1.67798 Y-0.83860
G01 X1.68012 Y-0.83702
G01 X1.68526 Y-0.83003
G01 X1.68600 Y-0.82564
G01 X1.68441 Y-0.82127
G01 X1.68136 Y-0.81854
G01 X1.67514 Y-0.81617
G01 X1.66715 Y-0.81835
G01 X1.63193 Y-0.81835
G01 X1.62915 Y-0.81719
G01 X1.62799 Y-0.81441
G01 X1.62829 Y-0.73416
G01 X1.62979 Y-0.73261
G01 X1.62377 Y-0.73389
G01 X1.61692 Y-0.73167
G01 X1.58237 Y-0.73167
G01 X1.58026 Y-0.73212
G01 X1.57829 Y-0.73416
G01 X1.57799 Y-0.81441
G01 X1.57915 Y-0.81719
G01 X1.58193 Y-0.81835
G01 X1.61736 Y-0.81835
G01 X1.61955 Y-0.81768
G01 X1.62100 Y-0.81592
G01 X1.62130 Y-0.73567
G01 X1.62064 Y-0.73348
G01 X1.61802 Y-0.73203
G01 X1.58219 Y-0.73174
G01 X1.57720 Y-0.73356
G01 X1.57377 Y-0.73389
G01 X1.56801 Y-0.73203
G01 X1.53193 Y-0.73173
G01 X1.52974 Y-0.73240
G01 X1.52829 Y-0.73416
G01 X1.52799 Y-0.81441
G01 X1.52914 Y-0.81719
G01 X1.53193 Y-0.81835
G01 X1.56709 Y-0.81835
G01 X1.53780 Y-0.81850
G01 X1.53469 Y-0.81945
G01 X1.53101 Y-0.82291
G01 X1.52948 Y-0.82707
G01 X1.53012 Y-0.83161
G01 X1.53418 Y-0.83905
G01 X1.53468 Y-0.84151
G01 X1.53379 Y-0.84240
G01 X1.51953 Y-0.84240
G01 X1.51718 Y-0.84079
G01 X1.51351 Y-0.83984
G01 X1.50074 Y-0.83983
G01 X1.49624 Y-0.84125
G01 X1.49345 Y-0.84382
G01 X1.49163 Y-0.84849
G01 X1.49171 Y-0.86465
G01 X1.49302 Y-0.86821
G01 X1.49624 Y-0.87143
G01 X1.50026 Y-0.87282
G01 X1.51292 Y-0.87287
G01 X1.51612 Y-0.87232
G01 X1.51953 Y-0.87028
G01 X1.53379 Y-0.87028
G01 X1.53468 Y-0.87116
G01 X1.53297 Y-0.87655
G01 X1.53122 Y-0.87918
G01 X1.52635 Y-0.88317
G01 X1.52173 Y-0.88469
G01 X1.51641 Y-0.87989
G01 X1.51387 Y-0.87892
G01 X1.51038 Y-0.87892
G01 X1.50716 Y-0.88026
G01 X1.50518 Y-0.88213
G01 X1.50337 Y-0.88595
G01 X1.50049 Y-0.88821
G01 X1.49877 Y-0.89146
G01 X1.49810 Y-0.98359
G01 X1.49652 Y-0.98513
G01 X1.49452 Y-0.98567
G01 X1.45090 Y-0.98567
G01 X1.44785 Y-0.98452
G01 X1.44669 Y-0.98146
G01 X1.44669 Y-0.96582
G01 X1.44663 Y-0.98129
G04 P0 ( dwell for no time -- G64 should not smooth over this point )
G00 Z0.07874 ( retract )

G00 X1.69118 Y-0.86313 ( rapid move to begin. )
G01 F3.93701
G01 Z-0.00197
G04 P0 ( dwell for no time -- G64 should not smooth over this point )
G01 F7.87402
G01 X1.69118 Y-0.86313
G01 X1.69131 Y-0.84803
G01 X1.69306 Y-0.84384
G01 X1.69543 Y-0.84150
G01 X1.70054 Y-0.83982
G01 X1.71312 Y-0.83984
G01 X1.71787 Y-0.84139
G01 X1.72084 Y-0.84447
G01 X1.72217 Y-0.84836
G01 X1.72224 Y-0.86371
G01 X1.72093 Y-0.86805
G01 X1.71803 Y-0.87118
G01 X1.71293 Y-0.87286
G01 X1.69865 Y-0.87259
G01 X1.69522 Y-0.87099
G01 X1.69288 Y-0.86862
G01 X1.69179 Y-0.86650
G01 X1.69118 Y-0.86313
G04 P0 ( dwell for no time -- G64 should not smooth over this point )
G00 Z0.07874 ( retract )

G00 X2.07323 Y-0.06402 ( rapid move to begin. )
G01 F3.93701
G01 Z-0.00197
G04 P0 ( dwell for no time -- G64 should not smooth over this point )
G01 F7.87402
G01 X2.07323 Y-0.06402
G01 X2.09943 Y-0.06409
G01 X2.10145 Y-0.06517
G01 X2.10230 Y-0.06645
G01 X2.10260 Y-0.07173
G01 X2.11371 Y-0.07173
G01 X2.11472 Y-0.07072
G01 X2.11411 Y-0.06327
G01 X2.11114 Y-0.05771
G01 X2.10627 Y-0.05372
G01 X2.10024 Y-0.05189
G01 X2.07424 Y-0.05189
G01 X2.07323 Y-0.05290
G01 X2.07323 Y-0.06402
G04 P0 ( dwell for no time -- G64 should not smooth over this point )
G00 Z0.07874 ( retract )

G00 X2.00386 Y-0.07072 ( rapid move to begin. )
G01 F3.93701
G01 Z-0.00197
G04 P0 ( dwell for no time -- G64 should not smooth over this point )
G01 F7.87402
G01 X2.00386 Y-0.07072
G01 X2.00487 Y-0.07173
G01 X2.01598 Y-0.07173
G01 X2.01628 Y-0.06645
G01 X2.01714 Y-0.06517
G01 X2.01915 Y-0.06409
G01 X2.04535 Y-0.06402
G01 X2.04535 Y-0.05290
G01 X2.04434 Y-0.05189
G01 X2.01834 Y-0.05189
G01 X2.01231 Y-0.05372
G01 X2.00968 Y-0.05547
G01 X2.00569 Y-0.06034
G01 X2.00386 Y-0.06637
G01 X2.00386 Y-0.07072
G04 P0 ( dwell for no time -- G64 should not smooth over this point )
G00 Z0.07874 ( retract )

G00 X2.00386 Y-0.10497 ( rapid move to begin. )
G01 F3.93701
G01 Z-0.00197
G04 P0 ( dwell for no time -- G64 should not smooth over this point )
G01 F7.87402
G01 X2.00386 Y-0.10497
G01 X2.00569 Y-0.11099
G01 X2.00971 Y-0.11589
G01 X2.01334 Y-0.11852
G01 X2.01566 Y-0.12269
G01 X2.01592 Y-0.15294
G01 X2.01814 Y-0.15979
G01 X2.01781 Y-0.16322
G01 X2.01598 Y-0.16795
G01 X2.01634 Y-0.20426
G01 X2.01592 Y-0.20295
G01 X2.01592 Y-0.16839
G01 X2.01686 Y-0.16581
G01 X2.01841 Y-0.16431
G01 X2.09866 Y-0.16401
G01 X2.10085 Y-0.16468
G01 X2.10266 Y-0.16839
G01 X2.10266 Y-0.20294
G01 X2.10077 Y-0.20812
G01 X2.10044 Y-0.21077
G01 X2.10198 Y-0.21606
G01 X2.10085 Y-0.21468
G01 X2.09866 Y-0.21402
G01 X2.01841 Y-0.21432
G01 X2.01637 Y-0.21629
G01 X2.01598 Y-0.21795
G01 X2.01598 Y-0.25314
G01 X2.01814 Y-0.25979
G01 X2.01781 Y-0.26322
G01 X2.01598 Y-0.26795
G01 X2.01634 Y-0.30426
G01 X2.01592 Y-0.30295
G01 X2.01592 Y-0.26839
G01 X2.01686 Y-0.26581
G01 X2.01841 Y-0.26432
G01 X2.09866 Y-0.26401
G01 X2.10085 Y-0.26468
G01 X2.10266 Y-0.26839
G01 X2.10266 Y-0.30295
G01 X2.10077 Y-0.30812
G01 X2.10044 Y-0.31077
G01 X2.10198 Y-0.31606
G01 X2.10085 Y-0.31468
G01 X2.09866 Y-0.31401
G01 X2.01841 Y-0.31432
G01 X2.01637 Y-0.31629
G01 X2.01598 Y-0.31795
G01 X2.01598 Y-0.35314
G01 X2.01814 Y-0.35979
G01 X2.01781 Y-0.36322
G01 X2.01598 Y-0.36795
G01 X2.01634 Y-0.40426
G01 X2.01592 Y-0.40295
G01 X2.01592 Y-0.36839
G01 X2.01686 Y-0.36581
G01 X2.01841 Y-0.36431
G01 X2.09866 Y-0.36401
G01 X2.10085 Y-0.36468
G01 X2.10198 Y-0.36606
G01 X2.10266 Y-0.36839
G01 X2.10266 Y-0.40294
G01 X2.10077 Y-0.40812
G01 X2.10044 Y-0.41077
G01 X2.10198 Y-0.41606
G01 X2.10085 Y-0.41468
G01 X2.09866 Y-0.41402
G01 X2.01841 Y-0.41431
G01 X2.01637 Y-0.41629
G01 X2.01598 Y-0.41795
G01 X2.01598 Y-0.45314
G01 X2.01814 Y-0.45979
G01 X2.01781 Y-0.46322
G01 X2.01598 Y-0.46795
G01 X2.01634 Y-0.50426
G01 X2.01592 Y-0.50295
G01 X2.01592 Y-0.46839
G01 X2.01686 Y-0.46581
G01 X2.01841 Y-0.46431
G01 X2.09866 Y-0.46402
G01 X2.10085 Y-0.46468
G01 X2.10198 Y-0.46606
G01 X2.10266 Y-0.46839
G01 X2.10266 Y-0.50294
G01 X2.10077 Y-0.50812
G01 X2.10044 Y-0.51077
G01 X2.10198 Y-0.51606
G01 X2.10085 Y-0.51468
G01 X2.09866 Y-0.51401
G01 X2.01841 Y-0.51431
G01 X2.01637 Y-0.51628
G01 X2.01598 Y-0.55314
G01 X2.01814 Y-0.55979
G01 X2.01781 Y-0.56322
G01 X2.01598 Y-0.56795
G01 X2.01634 Y-0.60426
G01 X2.01592 Y-0.60295
G01 X2.01592 Y-0.56839
G01 X2.01686 Y-0.56581
G01 X2.01841 Y-0.56432
G01 X2.09866 Y-0.56402
G01 X2.10085 Y-0.56468
G01 X2.10198 Y-0.56606
G01 X2.10266 Y-0.56839
G01 X2.10266 Y-0.60294
G01 X2.10171 Y-0.60585
G01 X2.10017 Y-0.60702
G01 X2.01992 Y-0.60732
G01 X2.01714 Y-0.60617
G01 X2.01634 Y-0.60426
G01 X2.01814 Y-0.60979
G01 X2.01781 Y-0.61322
G01 X2.01598 Y-0.61795
G01 X2.01634 Y-0.65426
G01 X2.01592 Y-0.65295
G01 X2.01592 Y-0.61839
G01 X2.01686 Y-0.61581
G01 X2.01841 Y-0.61432
G01 X2.09866 Y-0.61401
G01 X2.10085 Y-0.61468
G01 X2.10266 Y-0.61839
G01 X2.10266 Y-0.65294
G01 X2.10171 Y-0.65585
G01 X2.10017 Y-0.65702
G01 X2.01992 Y-0.65732
G01 X2.01714 Y-0.65617
G01 X2.01634 Y-0.65426
G01 X2.01814 Y-0.65979
G01 X2.01781 Y-0.66322
G01 X2.01598 Y-0.66795
G01 X2.01634 Y-0.70426
G01 X2.01592 Y-0.70295
G01 X2.01592 Y-0.66839
G01 X2.01686 Y-0.66581
G01 X2.01841 Y-0.66431
G01 X2.09866 Y-0.66402
G01 X2.10085 Y-0.66468
G01 X2.10266 Y-0.66839
G01 X2.10266 Y-0.70295
G01 X2.10171 Y-0.70585
G01 X2.10017 Y-0.70702
G01 X2.01992 Y-0.70732
G01 X2.01714 Y-0.70617
G01 X2.01634 Y-0.70426
G01 X2.01814 Y-0.70979
G01 X2.01781 Y-0.71322
G01 X2.01598 Y-0.71795
G01 X2.01598 Y-0.75338
G01 X2.01592 Y-0.71839
G01 X2.01686 Y-0.71581
G01 X2.01841 Y-0.71432
G01 X2.09866 Y-0.71401
G01 X2.10085 Y-0.71468
G01 X2.10266 Y-0.71839
G01 X2.10266 Y-0.75294
G01 X2.10195 Y-0.75558
G01 X2.09943 Y-0.75726
G01 X2.02036 Y-0.75738
G01 X2.01772 Y-0.75667
G01 X2.01604 Y-0.75416
G01 X2.01604 Y-0.75352
G01 X2.01748 Y-0.75631
G01 X2.02012 Y-0.75732
G01 X2.09979 Y-0.75702
G01 X2.10193 Y-0.75557
G01 X2.10260 Y-0.75318
G01 X2.10230 Y-0.71645
G01 X2.10077 Y-0.71322
G01 X2.10044 Y-0.70979
G01 X2.10260 Y-0.70314
G01 X2.10230 Y-0.66645
G01 X2.10077 Y-0.66322
G01 X2.10044 Y-0.65979
G01 X2.10260 Y-0.65314
G01 X2.10230 Y-0.61645
G01 X2.10077 Y-0.61322
G01 X2.10044 Y-0.60979
G01 X2.10260 Y-0.60314
G01 X2.10230 Y-0.56645
G01 X2.10044 Y-0.56077
G01 X2.10077 Y-0.55812
G01 X2.10266 Y-0.55295
G01 X2.10230 Y-0.51645
G01 X2.10198 Y-0.51606
G01 X2.10260 Y-0.55339
G01 X2.10222 Y-0.55504
G01 X2.10017 Y-0.55702
G01 X2.01992 Y-0.55732
G01 X2.01714 Y-0.55617
G01 X2.01592 Y-0.55295
G01 X2.01592 Y-0.51839
G01 X2.01781 Y-0.51322
G01 X2.01814 Y-0.50979
G01 X2.01634 Y-0.50426
G01 X2.01714 Y-0.50617
G01 X2.01992 Y-0.50732
G01 X2.10017 Y-0.50702
G01 X2.10172 Y-0.50552
G01 X2.10259 Y-0.50312
G01 X2.10230 Y-0.46645
G01 X2.10044 Y-0.46077
G01 X2.10077 Y-0.45812
G01 X2.10266 Y-0.45294
G01 X2.10266 Y-0.41839
G01 X2.10198 Y-0.41606
G01 X2.10260 Y-0.45338
G01 X2.10222 Y-0.45504
G01 X2.10017 Y-0.45702
G01 X2.01992 Y-0.45732
G01 X2.01714 Y-0.45617
G01 X2.01592 Y-0.45295
G01 X2.01592 Y-0.41839
G01 X2.01781 Y-0.41322
G01 X2.01814 Y-0.40979
G01 X2.01634 Y-0.40426
G01 X2.01714 Y-0.40617
G01 X2.01992 Y-0.40732
G01 X2.10017 Y-0.40702
G01 X2.10172 Y-0.40553
G01 X2.10259 Y-0.40312
G01 X2.10230 Y-0.36645
G01 X2.10044 Y-0.36077
G01 X2.10077 Y-0.35812
G01 X2.10266 Y-0.35295
G01 X2.10230 Y-0.31645
G01 X2.10198 Y-0.31606
G01 X2.10260 Y-0.35339
G01 X2.10222 Y-0.35504
G01 X2.10017 Y-0.35702
G01 X2.01992 Y-0.35732
G01 X2.01714 Y-0.35617
G01 X2.01592 Y-0.35295
G01 X2.01592 Y-0.31839
G01 X2.01781 Y-0.31322
G01 X2.01814 Y-0.30979
G01 X2.01634 Y-0.30426
G01 X2.01714 Y-0.30617
G01 X2.01992 Y-0.30732
G01 X2.10017 Y-0.30702
G01 X2.10172 Y-0.30552
G01 X2.10259 Y-0.30312
G01 X2.10230 Y-0.26645
G01 X2.10077 Y-0.26322
G01 X2.10044 Y-0.25979
G01 X2.10266 Y-0.25294
G01 X2.10266 Y-0.21839
G01 X2.10198 Y-0.21606
G01 X2.10260 Y-0.25314
G01 X2.10171 Y-0.25585
G01 X2.10017 Y-0.25702
G01 X2.01992 Y-0.25732
G01 X2.01714 Y-0.25617
G01 X2.01592 Y-0.25295
G01 X2.01592 Y-0.21839
G01 X2.01781 Y-0.21322
G01 X2.01814 Y-0.20979
G01 X2.01634 Y-0.20426
G01 X2.01714 Y-0.20617
G01 X2.01992 Y-0.20732
G01 X2.10017 Y-0.20702
G01 X2.10172 Y-0.20553
G01 X2.10259 Y-0.20312
G01 X2.10230 Y-0.16645
G01 X2.10077 Y-0.16322
G01 X2.10044 Y-0.15979
G01 X2.10260 Y-0.15314
G01 X2.10171 Y-0.15585
G01 X2.10017 Y-0.15702
G01 X2.01992 Y-0.15732
G01 X2.01714 Y-0.15617
G01 X2.01598 Y-0.15313
G01 X2.01598 Y-0.11795
G01 X2.01665 Y-0.11577
G01 X2.01841 Y-0.11431
G01 X2.09866 Y-0.11402
G01 X2.10085 Y-0.11468
G01 X2.10230 Y-0.11645
G01 X2.10260 Y-0.15314
G01 X2.10293 Y-0.12269
G01 X2.10525 Y-0.11852
G01 X2.10887 Y-0.11589
G01 X2.11290 Y-0.11099
G01 X2.11472 Y-0.10497
G01 X2.11472 Y-0.10062
G01 X2.11371 Y-0.09961
G01 X2.10260 Y-0.09961
G01 X2.10230 Y-0.10489
G01 X2.10085 Y-0.10666
G01 X2.09866 Y-0.10732
G01 X2.01992 Y-0.10732
G01 X2.01773 Y-0.10666
G01 X2.01628 Y-0.10489
G01 X2.01598 Y-0.09961
G01 X2.00487 Y-0.09961
G01 X2.00386 Y-0.10062
G01 X2.00386 Y-0.10497
G04 P0 ( dwell for no time -- G64 should not smooth over this point )
G00 Z0.07874 ( retract )

G00 X2.16147 Y-0.50011 ( rapid move to begin. )
G01 F3.93701
G01 Z-0.00197
G04 P0 ( dwell for no time -- G64 should not smooth over this point )
G01 F7.87402
G01 X2.16147 Y-0.50011
G01 X2.16154 Y-0.48866
G01 X2.16154 Y-0.50028
G01 X2.16269 Y-0.50333
G01 X2.16574 Y-0.50449
G01 X2.22603 Y-0.50419
G01 X2.22780 Y-0.50274
G01 X2.22853 Y-0.50011
G01 X2.22818 Y-0.47738
G01 X2.22673 Y-0.47561
G01 X2.22409 Y-0.47490
G01 X2.16396 Y-0.47524
G01 X2.16218 Y-0.47670
G01 X2.16159 Y-0.47813
G01 X2.16154 Y-0.48866
G01 X2.16159 Y-0.47872
G01 X2.16220 Y-0.47671
G01 X2.16397 Y-0.47526
G01 X2.22432 Y-0.47496
G01 X2.22671 Y-0.47562
G01 X2.22816 Y-0.47739
G01 X2.22846 Y-0.50035
G01 X2.22782 Y-0.50275
G01 X2.22604 Y-0.50421
G01 X2.16591 Y-0.50455
G01 X2.16268 Y-0.50335
G01 X2.16147 Y-0.50011
G04 P0 ( dwell for no time -- G64 should not smooth over this point )
G00 Z0.07874 ( retract )

G00 X2.14983 Y-0.60315 ( rapid move to begin. )
G01 F3.93701
G01 Z-0.00197
G04 P0 ( dwell for no time -- G64 should not smooth over this point )
G01 F7.87402
G01 X2.14983 Y-0.60315
G01 X2.15124 Y-0.59924
G01 X2.15300 Y-0.59661
G01 X2.15786 Y-0.59262
G01 X2.16079 Y-0.59140
G01 X2.16389 Y-0.59079
G01 X2.18005 Y-0.59079
G01 X2.18106 Y-0.59180
G01 X2.18106 Y-0.60291
G01 X2.16547 Y-0.60291
G01 X2.16309 Y-0.60374
G01 X2.15042 Y-0.60374
G01 X2.14983 Y-0.60315
G04 P0 ( dwell for no time -- G64 should not smooth over this point )
G00 Z0.07874 ( retract )

G00 X2.14983 Y-0.65236 ( rapid move to begin. )
G01 F3.93701
G01 Z-0.00197
G04 P0 ( dwell for no time -- G64 should not smooth over this point )
G01 F7.87402
G01 X2.14983 Y-0.65236
G01 X2.15042 Y-0.65295
G01 X2.16309 Y-0.65295
G01 X2.16547 Y-0.65212
G01 X2.18106 Y-0.65212
G01 X2.18106 Y-0.63244
G01 X2.16547 Y-0.63244
G01 X2.16309 Y-0.63161
G01 X2.15042 Y-0.63161
G01 X2.14983 Y-0.63221
G01 X2.15003 Y-0.63319
G01 X2.15289 Y-0.63892
G01 X2.15355 Y-0.64228
G01 X2.15289 Y-0.64564
G01 X2.14983 Y-0.65236
G04 P0 ( dwell for no time -- G64 should not smooth over this point )
G00 Z0.07874 ( retract )

G00 X2.14983 Y-0.68142 ( rapid move to begin. )
G01 F3.93701
G01 Z-0.00197
G04 P0 ( dwell for no time -- G64 should not smooth over this point )
G01 F7.87402
G01 X2.14983 Y-0.68142
G01 X2.15042 Y-0.68083
G01 X2.16309 Y-0.68083
G01 X2.16547 Y-0.68165
G01 X2.18106 Y-0.68165
G01 X2.18106 Y-0.69276
G01 X2.18005 Y-0.69378
G01 X2.16389 Y-0.69378
G01 X2.16079 Y-0.69316
G01 X2.15786 Y-0.69195
G01 X2.15300 Y-0.68796
G01 X2.15124 Y-0.68532
G01 X2.14983 Y-0.68142
G04 P0 ( dwell for no time -- G64 should not smooth over this point )
G00 Z0.07874 ( retract )

G00 X2.20894 Y-0.60291 ( rapid move to begin. )
G01 F3.93701
G01 Z-0.00197
G04 P0 ( dwell for no time -- G64 should not smooth over this point )
G01 F7.87402
G01 X2.20894 Y-0.60291
G01 X2.22453 Y-0.60291
G01 X2.22691 Y-0.60374
G01 X2.23957 Y-0.60374
G01 X2.24017 Y-0.60315
G01 X2.23876 Y-0.59924
G01 X2.23477 Y-0.59437
G01 X2.22921 Y-0.59140
G01 X2.22611 Y-0.59079
G01 X2.20995 Y-0.59079
G01 X2.20894 Y-0.59180
G01 X2.20894 Y-0.60291
G04 P0 ( dwell for no time -- G64 should not smooth over this point )
G00 Z0.07874 ( retract )

G00 X2.20894 Y-0.65212 ( rapid move to begin. )
G01 F3.93701
G01 Z-0.00197
G04 P0 ( dwell for no time -- G64 should not smooth over this point )
G01 F7.87402
G01 X2.20894 Y-0.65212
G01 X2.22453 Y-0.65212
G01 X2.22691 Y-0.65295
G01 X2.23957 Y-0.65295
G01 X2.24017 Y-0.65236
G01 X2.23997 Y-0.65138
G01 X2.23711 Y-0.64564
G01 X2.23645 Y-0.64228
G01 X2.23711 Y-0.63892
G01 X2.24017 Y-0.63221
G01 X2.23957 Y-0.63161
G01 X2.22691 Y-0.63161
G01 X2.22453 Y-0.63244
G01 X2.20894 Y-0.63244
G01 X2.20894 Y-0.65212
G04 P0 ( dwell for no time -- G64 should not smooth over this point )
G00 Z0.07874 ( retract )

G00 X2.20894 Y-0.68165 ( rapid move to begin. )
G01 F3.93701
G01 Z-0.00197
G04 P0 ( dwell for no time -- G64 should not smooth over this point )
G01 F7.87402
G01 X2.20894 Y-0.68165
G01 X2.22453 Y-0.68165
G01 X2.22691 Y-0.68083
G01 X2.23957 Y-0.68083
G01 X2.24017 Y-0.68142
G01 X2.23876 Y-0.68532
G01 X2.23477 Y-0.69019
G01 X2.22921 Y-0.69316
G01 X2.22611 Y-0.69378
G01 X2.20995 Y-0.69378
